!!!!SEGMENT: pl-cz--d-iii-30--001-004_elsner-jozef--missa-in-c-op-26-sanctus.krn
!!!cenid: 18xx:4
!!!COM: Elsner, Józef
!!!COM-rismID: pe30000957
!!!CDT: 1769/06/01-1854/04/18
!!!CNT: Polish
!!!OPR: Missa in C op. 26
!!!OTL: Sanctus
!!!OMV: 004
!!!PDT: 1820
!!!AGN: Sacred; Mass
!!!SMS-siglum: PL-CZ
!!!SMS-shelfmark: D III-30
!!!SMS-shelfwork: 001-004 M
!!!NIFC-rismSourceID: 1001121080
!!!NIFC-rismChildID: 1001121080
!!!NIFC-islandoraID:
!!!URL-pdf-islandora:
!!!URL-scan:
!!!IIIF:
!!!ONB-nifc:
!!!AIN: 1 alto 1 bass 2 clars 2 cor 1 empty 1 fagot 1 flt 1 organ 1 soprn 1 tenor 1 timpa 1 tromb 1 viola 2 violn
!!!key:
**kern	**fb	**dynam	**blank	**kern	**dynam	**kern	**dynam	**kern	**dynam	**kern	**text	**kern	**text	**kern	**text	**kern	**text	**kern	**kern	**kern	**kern	**kern	**kern	**dynam	**kern	**dynam	**kern	**kern
*part17	*	*part17	*	*part16	*part16	*part15	*part15	*part14	*part14	*part13	*part13	*part12	*part12	*part11	*part11	*part10	*part10	*part9	*part8	*part7	*part6	*part5	*part4	*part4	*part3	*part3	*part2	*part1
*staff17	*	*	*	*staff16	*	*staff15	*	*staff14	*	*staff13	*staff13	*staff12	*staff12	*staff11	*staff11	*staff10	*staff10	*staff9	*staff8	*staff7	*staff6	*staff5	*staff4	*	*staff3	*	*staff2	*staff1
*Iorgan	*	*	*	*Iviola	*	*Ivioln	*	*Ivioln	*	*Ibass	*	*Itenor	*	*Ialto	*	*Isoprn	*	*Itimpa	*Itromb	*Iempty	*Icor	*Icor	*Ifagot	*	*Iclars	*	*Iclars	*Iflt
*I"Organo	*	*	*	*I"Viola	*	*I"Violino II	*	*I"Violino I	*	*I"Basso	*	*I"Tenore	*	*I"Alto	*	*I"Soprano	*	*I"Timpani in C G	*I"Trombone Basso	*I"Clarino I & II in C	*I"Corno II in C	*I"Corno I in C	*I"Fagotti I & II	*	*I"Clarinetto II in C	*	*I"Clarinetto I in C	*I"Flauti I & II
*I'Org	*	*	*	*I'Va	*	*I'Vn II	*	*I'Vn I	*	*I'B	*	*I'T	*	*I'A	*	*I'S	*	*I'Timp	*I'B Tbn	*I'Clno I & II in C	*I'Cor II in C	*I'Cor I in C	*I'Fg I & II	*	*I'Cl II in C	*	*I'Cl I in C	*I'Fl I & II
*clefF4	*	*	*	*clefC3	*	*clefG2	*	*clefG2	*	*clefF4	*	*clefC4	*	*clefC3	*	*clefC1	*	*clefF4	*clefF4	*clefG2	*clefG2	*clefG2	*clefF4	*	*clefG2	*	*clefG2	*clefG2
*	*	*	*	*	*	*	*	*	*	*	*	*	*	*	*	*	*	*	*	*	*Trd0c0	*Trd0c0	*	*	*	*	*	*
*k[]	*	*	*	*k[]	*	*k[]	*	*k[]	*	*k[]	*	*k[]	*	*k[]	*	*k[]	*	*k[]	*k[]	*k[]	*k[]	*k[]	*k[]	*	*k[]	*	*k[]	*k[]
*C:	*	*	*	*C:	*	*C:	*	*C:	*	*C:	*	*C:	*	*C:	*	*C:	*	*C:	*C:	*C:	*C:	*C:	*C:	*	*C:	*	*C:	*C:
*M4/4	*	*	*	*M4/4	*	*M4/4	*	*M4/4	*	*M4/4	*	*M4/4	*	*M4/4	*	*M4/4	*	*M4/4	*M4/4	*M4/4	*M4/4	*M4/4	*M4/4	*	*M4/4	*	*M4/4	*M4/4
*met(c)	*	*	*	*met(c)	*	*met(c)	*	*met(c)	*	*met(c)	*	*met(c)	*	*met(c)	*	*met(c)	*	*met(c)	*met(c)	*met(c)	*met(c)	*met(c)	*met(c)	*	*met(c)	*	*met(c)	*met(c)
!	!	!	!	!	!	!	!	!	!	!	!	!	!	!	!	!	!	!	!	!	!	!	!	!	!	!	!	!LO:TX:a:B:t=Adagio ma non troppo
*	*	*	*	*	*	*	*	*	*	*	*	*	*	*	*	*	*	*	*	*^	*	*	*^	*	*	*	*	*
(<16GGLL	.	ff	.	(<16GLL	ff	(<16GLL	f	(<16GLL	ff	8r	.	8r	.	8r	.	8r	.	8r	8r	8r	8ryy	8r	8r	8r	8ryy	.	8r	.	8r	8r
32AAL	.	.	.	32AL	.	32AL	.	32AL	.	.	.	.	.	.	.	.	.	.	.	.	.	.	.	.	.	.	.	.	.	.
32BBJJJ)	.	.	.	32BJJJ)	.	32BJJJ	.	32BJJJ	.	.	.	.	.	.	.	.	.	.	.	.	.	.	.	.	.	.	.	.	.	.
=1	=1	=1	=1	=1	=1	=1	=1	=1	=1	=1	=1	=1	=1	=1	=1	=1	=1	=1	=1	=1	=1	=1	=1	=1	=1	=1	=1	=1	=1	=1
*	*	*	*	*	*	*	*	*	*	*	*	*	*	*	*	*	*	*	*	*	*	*	*	*	*	*	*	*	*	*^
2C	.	.	.	2c	.	2c)	.	2c)	.	1r	.	1r	.	1r	.	1r	.	4r	4r	4r	4ryy	4r	4r	4r	4ryy	.	4r	.	4r	4r	4ryy
.	.	.	.	.	.	.	.	.	.	.	.	.	.	.	.	.	.	16CLL	2C	2cc	2e/	2cc	2ee	2C	2C/	.	2cc	.	2ee	2ccc\	2ee
.	.	.	.	.	.	.	.	.	.	.	.	.	.	.	.	.	.	16C	.	.	.	.	.	.	.	.	.	.	.	.	.
.	.	.	.	.	.	.	.	.	.	.	.	.	.	.	.	.	.	16C	.	.	.	.	.	.	.	.	.	.	.	.	.
.	.	.	.	.	.	.	.	.	.	.	.	.	.	.	.	.	.	16CJJ	.	.	.	.	.	.	.	.	.	.	.	.	.
8.CL	.	.	.	8.cL	.	8.cL	.	(<8.eL	.	.	.	.	.	.	.	.	.	16CLL	.	.	.	.	.	.	.	.	.	.	.	.	.
.	.	.	.	.	.	.	.	.	.	.	.	.	.	.	.	.	.	16C	.	.	.	.	.	.	.	.	.	.	.	.	.
.	.	.	.	.	.	.	.	.	.	.	.	.	.	.	.	.	.	16C	.	.	.	.	.	.	.	.	.	.	.	.	.
16CK	.	.	.	16cK	.	16cK	.	16eK	.	.	.	.	.	.	.	.	.	16CJJ	.	.	.	.	.	.	.	.	.	.	.	.	.
8.C	.	.	.	8.c	.	8.e	.	8.g	.	.	.	.	.	.	.	.	.	16CLL	4C	4cc	4e/	4cc	4ee	4C	4C/	.	4cc	.	4ee	4ccc\	4ee
.	.	.	.	.	.	.	.	.	.	.	.	.	.	.	.	.	.	16C	.	.	.	.	.	.	.	.	.	.	.	.	.
.	.	.	.	.	.	.	.	.	.	.	.	.	.	.	.	.	.	16C	.	.	.	.	.	.	.	.	.	.	.	.	.
16CJk	.	.	.	16cJk	.	16eJk	.	16gJk)	.	.	.	.	.	.	.	.	.	16CJJ	.	.	.	.	.	.	.	.	.	.	.	.	.
=2	=2	=2	=2	=2	=2	=2	=2	=2	=2	=2	=2	=2	=2	=2	=2	=2	=2	=2	=2	=2	=2	=2	=2	=2	=2	=2	=2	=2	=2	=2	=2
4C	.	.	.	4c	.	4G 4e	.	4cc	.	1C	San-	(>2.e	Sanc-	2.g	Sanc-	(>2.cc	San-	4C	4C	4cc	4e/	4cc	4ee	2C	2C/	.	2cc	.	4ee	4ccc\	4ee
4r	.	.	.	4r	.	4r	.	4r	.	.	.	.	.	.	.	.	.	4r	4r	4r	4ryy	4r	4r	.	.	.	.	.	4r	4r	4ryy
2r	.	.	.	2r	.	2r	.	2r	.	.	.	.	.	.	.	.	.	2r	2r	2r	2ryy	2r	2r	2r	2ryy	.	2r	.	2r	2r	2ryy
.	.	.	.	.	.	.	.	.	.	.	.	4e-X	.	4f#X	.	4a)	.	.	.	.	.	.	.	.	.	.	.	.	.	.	.
!	!	!	!	!	!	!	!	!	!	!	!	!	!	!	!	!	!	!LO:LB:g=original	!	!	!	!	!	!	!	!	!	!	!	!	!
=3	=3	=3	=3	=3	=3	=3	=3	=3	=3	=3	=3	=3	=3	=3	=3	=3	=3	=3	=3	=3	=3	=3	=3	=3	=3	=3	=3	=3	=3	=3	=3
4r	.	.	.	4r	.	4r	.	4r	.	2G	-ctus	2d)	-tus	2g	-tus	2b	-ctus	1r	1r	1r	1ryy	1r	1r	1r	1ryy	.	1r	.	1r	1r	1ryy
4G	.	.	.	4G	.	4B 4d	p	4g	p	.	.	.	.	.	.	.	.	.	.	.	.	.	.	.	.	.	.	.	.	.	.
8.GL	.	.	.	8.GL	.	8.BL 8.d	.	8.bL	.	2r	.	2r	.	2r	.	2r	.	.	.	.	.	.	.	.	.	.	.	.	.	.	.
16GK	.	.	.	16GK	.	16BK 16d	.	16bK	.	.	.	.	.	.	.	.	.	.	.	.	.	.	.	.	.	.	.	.	.	.	.
8.G	.	.	.	8.G	.	8.B 8.d	.	8.dd	.	.	.	.	.	.	.	.	.	.	.	.	.	.	.	.	.	.	.	.	.	.	.
16GJk	.	.	.	16GJk	.	16BJk 16d	.	16ddJk	.	.	.	.	.	.	.	.	.	.	.	.	.	.	.	.	.	.	.	.	.	.	.
=4	=4	=4	=4	=4	=4	=4	=4	=4	=4	=4	=4	=4	=4	=4	=4	=4	=4	=4	=4	=4	=4	=4	=4	=4	=4	=4	=4	=4	=4	=4	=4
4G	.	.	.	4G	.	4B 4d	.	4g	.	(>2.G	San-	(>2.d	Sanc-	1g	Sanc-	(>2.b^	san-	1r	1r	1r	1ryy	1r	1r	1r	1ryy	.	1r	.	1r	1r	1ryy
4r	.	.	.	4r	.	4r	.	4r	.	.	.	.	.	.	.	.	.	.	.	.	.	.	.	.	.	.	.	.	.	.	.
2r	.	.	.	2r	.	2r	.	2r	.	.	.	.	.	.	.	.	.	.	.	.	.	.	.	.	.	.	.	.	.	.	.
.	.	.	.	.	.	.	.	.	.	4C#X	.	4en)	.	.	.	4b-X)	.	.	.	.	.	.	.	.	.	.	.	.	.	.	.
!LO:LB:g=original	!	!	!	!LO:LB:g=original	!	!	!	!	!	!	!	!	!	!	!	!	!	!	!	!	!	!	!	!	!	!	!	!	!	!	!
=5	=5	=5	=5	=5	=5	=5	=5	=5	=5	=5	=5	=5	=5	=5	=5	=5	=5	=5	=5	=5	=5	=5	=5	=5	=5	=5	=5	=5	=5	=5	=5
!	!	!	!	!	!	!	!	!	!	!LO:TX:a:t=problem: brak litery "c" w słowie "Sanctus"	!	!	!	!	!	!	!	!	!	!	!	!	!	!	!	!	!	!	!	!	!
4r	.	.	.	4r	.	4r	.	4r	.	2D)	-tus	2f	-tus	2f	-tus	2a	-ctus	1r	1r	1r	1ryy	1r	1r	1r	1ryy	.	1r	.	1r	1r	1ryy
4D	.	.	.	4F	.	4A	p	4d	p	.	.	.	.	.	.	.	.	.	.	.	.	.	.	.	.	.	.	.	.	.	.
8.DL	.	.	.	8.FL	.	8.dL	.	8.fL	.	2r	.	2r	.	2r	.	2r	.	.	.	.	.	.	.	.	.	.	.	.	.	.	.
16DK	.	.	.	16FK	.	16dK	.	16fK	.	.	.	.	.	.	.	.	.	.	.	.	.	.	.	.	.	.	.	.	.	.	.
8.D	.	.	.	8.F 8.A	.	8.f	.	8.a	.	.	.	.	.	.	.	.	.	.	.	.	.	.	.	.	.	.	.	.	.	.	.
16DJk	.	.	.	16FJk 16A	.	16fJk	.	16aJk	.	.	.	.	.	.	.	.	.	.	.	.	.	.	.	.	.	.	.	.	.	.	.
!	!	!	!	!	!	!LO:LB:g=original	!	!LO:LB:g=original	!	!	!	!	!	!	!	!	!	!	!	!	!	!	!	!	!	!	!	!	!	!	!
=6	=6	=6	=6	=6	=6	=6	=6	=6	=6	=6	=6	=6	=6	=6	=6	=6	=6	=6	=6	=6	=6	=6	=6	=6	=6	=6	=6	=6	=6	=6	=6
4G	6 4	.	.	4G	.	4e	.	4g	.	1G	San-	(>2c	sanc-	(>2e	Sanc-	2g	san-	1r	1r	1r	1ryy	4r	4r	1r	1ryy	.	4r	.	4r	1r	1ryy
4r	.	.	.	4r	.	4r	.	4r	.	.	.	.	.	.	.	.	.	.	.	.	.	4cc	4ee	.	.	.	4cc	.	4ee	.	.
4GG	7	.	.	4G 4d	.	4G 4f	.	4b	.	.	.	2d)	.	2f)	.	2bn	.	.	.	.	.	4r	4r	.	.	.	4r	.	4r	.	.
4r	.	.	.	4r	.	4r	.	4r	.	.	.	.	.	.	.	.	.	.	.	.	.	4g	4dd	.	.	.	4b	.	4dd	.	.
!	!	!	!	!	!	!	!	!	!	!	!	!LO:LB:g=original	!	!	!	!	!	!	!	!	!	!	!	!	!	!	!	!	!	!	!
=7	=7	=7	=7	=7	=7	=7	=7	=7	=7	=7	=7	=7	=7	=7	=7	=7	=7	=7	=7	=7	=7	=7	=7	=7	=7	=7	=7	=7	=7	=7	=7
!	!	!	!	!	!	!LO:N:n=1:vis=2	!	!	!	!	!	!	!	!	!	!	!	!	!	!	!	!	!	!	!	!	!	!	!	!	!
*	*	*	*	*	*	*	*	*	*	*	*	*	*	*	*	*	*	*tremolo	*	*	*	*	*	*	*	*	*	*	*	*	*
4C	.	.	.	16cLL	.	16GLL 16e	.	2cc	.	2C	-ctus	2c	-tus	2e	-tus	2cc	-ctus	8CL	1C	2c	2c/	1cc	1ee	4C	4C/	.	1cc	.	1ee	2cc	2cc
.	.	.	.	16e	.	16g	.	.	.	.	.	.	.	.	.	.	.	.	.	.	.	.	.	.	.	.	.	.	.	.	.
.	.	.	.	16c	.	16G 16e	.	.	.	.	.	.	.	.	.	.	.	8C	.	.	.	.	.	.	.	.	.	.	.	.	.
.	.	.	.	16eJJ	.	16gJJ	.	.	.	.	.	.	.	.	.	.	.	.	.	.	.	.	.	.	.	.	.	.	.	.	.
!	!	!	!	!	!	!LO:N:n=1:vis=2	!	!	!	!	!	!	!	!	!	!	!	!	!	!	!	!	!	!	!	!	!	!	!	!	!
4C	.	.	.	16cLL	.	16GLL 16e	.	.	.	.	.	.	.	.	.	.	.	8C	.	.	.	.	.	4C	4C/	.	.	.	.	.	.
.	.	.	.	16e	.	16g	.	.	.	.	.	.	.	.	.	.	.	.	.	.	.	.	.	.	.	.	.	.	.	.	.
.	.	.	.	16c	.	16G 16e	.	.	.	.	.	.	.	.	.	.	.	8C	.	.	.	.	.	.	.	.	.	.	.	.	.
.	.	.	.	16eJJ	.	16gJJ	.	.	.	.	.	.	.	.	.	.	.	.	.	.	.	.	.	.	.	.	.	.	.	.	.
!	!	!	!	!	!	!LO:N:n=1:vis=2	!	!	!	!	!	!	!	!	!	!	!	!	!	!	!	!	!	!	!	!	!	!	!	!	!
4C	.	.	.	16cLL	.	16GLL 16e	.	8.eeL	.	2r	.	2r	.	2r	.	2r	.	8C	.	8.cL	8.cL/	.	.	4C	4C/	.	.	.	.	8.eeL	8.ccL
.	.	.	.	16e	.	16g	.	.	.	.	.	.	.	.	.	.	.	.	.	.	.	.	.	.	.	.	.	.	.	.	.
.	.	.	.	16c	.	16G 16e	.	.	.	.	.	.	.	.	.	.	.	8C	.	.	.	.	.	.	.	.	.	.	.	.	.
.	.	.	.	16eJJ	.	16gJJ	.	16eeK	.	.	.	.	.	.	.	.	.	.	.	16cK	16cK/	.	.	.	.	.	.	.	.	16eeK	16ccK
!	!	!	!	!	!	!LO:N:n=1:vis=2	!	!	!	!	!	!	!	!	!	!	!	!	!	!	!	!	!	!	!	!	!	!	!	!	!
4C	.	.	.	16cLL	.	16GLL 16e	.	8.gg	.	.	.	.	.	.	.	.	.	8C	.	8.c	8.c/	.	.	4C	4C/	.	.	.	.	8.gg	8.ee
.	.	.	.	16e	.	16g	.	.	.	.	.	.	.	.	.	.	.	.	.	.	.	.	.	.	.	.	.	.	.	.	.
.	.	.	.	16c	.	16G 16e	.	.	.	.	.	.	.	.	.	.	.	8CJ	.	.	.	.	.	.	.	.	.	.	.	.	.
.	.	.	.	16eJJ	.	16gJJ	.	16ggJk	.	.	.	.	.	.	.	.	.	.	.	16cJk	16cJk/	.	.	.	.	.	.	.	.	16ggJk	16eeJk
!	!	!	!	!	!	!LO:LB:g=original	!	!	!	!LO:LB:g=original	!	!	!	!LO:LB:g=original	!	!LO:LB:g=original	!	!	!	!	!	!	!	!	!	!	!	!	!	!	!
=8	=8	=8	=8	=8	=8	=8	=8	=8	=8	=8	=8	=8	=8	=8	=8	=8	=8	=8	=8	=8	=8	=8	=8	=8	=8	=8	=8	=8	=8	=8	=8
4C	6 4	.	.	16cLL	.	(<16fLL	.	8.aaL	.	2C	Do-	2c	Do-	2a	Do-	2ff	Do-	8CL	1C	2c	2c/	1c	1cc	4C	4C/	.	2a\	.	2ff	2aa\	2ff
.	.	.	.	16f	.	16a	.	.	.	.	.	.	.	.	.	.	.	.	.	.	.	.	.	.	.	.	.	.	.	.	.
.	.	.	.	16c	.	16f	.	.	.	.	.	.	.	.	.	.	.	8C	.	.	.	.	.	.	.	.	.	.	.	.	.
.	.	.	.	16fJJ	.	16aJJ)	.	16aaK	.	.	.	.	.	.	.	.	.	.	.	.	.	.	.	.	.	.	.	.	.	.	.
4C	.	.	.	16cLL	.	(<16fLL	.	8.ff	.	.	.	.	.	.	.	.	.	8C	.	.	.	.	.	4C	4C/	.	.	.	.	.	.
.	.	.	.	16f	.	16a	.	.	.	.	.	.	.	.	.	.	.	.	.	.	.	.	.	.	.	.	.	.	.	.	.
.	.	.	.	16c	.	16f	.	.	.	.	.	.	.	.	.	.	.	8C	.	.	.	.	.	.	.	.	.	.	.	.	.
.	.	.	.	16fJJ	.	16aJJ)	.	16ffJk	.	.	.	.	.	.	.	.	.	.	.	.	.	.	.	.	.	.	.	.	.	.	.
4C	5 3	.	.	16cLL	.	16eLL	.	8.eeL	.	4C	-mi-	4c	-mi-	4g	-mi-	4ee	-mi-	8C	.	2r	2ryy	.	.	4C	4C/	.	4g\	.	4ee	4gg\	4ee
.	.	.	.	16e	.	16g	.	.	.	.	.	.	.	.	.	.	.	.	.	.	.	.	.	.	.	.	.	.	.	.	.
.	.	.	.	16c	.	16e	.	.	.	.	.	.	.	.	.	.	.	8C	.	.	.	.	.	.	.	.	.	.	.	.	.
.	.	.	.	16eJJ	.	16gJJ	.	16cccK	.	.	.	.	.	.	.	.	.	.	.	.	.	.	.	.	.	.	.	.	.	.	.
4C	7 2	.	.	16fLL	.	16dLL	.	8.dd	.	4C	-nus	4B	-nus	4f	-nus	4dd	-nus	8C	.	.	.	.	.	4C	4C/	.	4b\	.	4dd	4bb\	4dd
.	.	.	.	16d	.	16f	.	.	.	.	.	.	.	.	.	.	.	.	.	.	.	.	.	.	.	.	.	.	.	.	.
.	.	.	.	16f	.	16d	.	.	.	.	.	.	.	.	.	.	.	8CJ	.	.	.	.	.	.	.	.	.	.	.	.	.
.	.	.	.	16dJJ	.	16fJJ	.	16bbJk	.	.	.	.	.	.	.	.	.	.	.	.	.	.	.	.	.	.	.	.	.	.	.
=9	=9	=9	=9	=9	=9	=9	=9	=9	=9	=9	=9	=9	=9	=9	=9	=9	=9	=9	=9	=9	=9	=9	=9	=9	=9	=9	=9	=9	=9	=9	=9
!	!	!	!	!	!	!LO:N:n=1:vis=2	!	!	!	!	!	!	!	!	!	!	!	!	!	!	!	!	!	!	!	!	!	!	!	!	!
4C	.	.	.	16cLL	.	16GLL 16e	.	2cc	.	2C	De-	2c	De-	2e	De-	2cc	De-	8CL	1C	2c	2c/	1cc	1ee	4C	4C/	.	1cc	.	1ee	2cc	2cc
.	.	.	.	16e	.	16g	.	.	.	.	.	.	.	.	.	.	.	.	.	.	.	.	.	.	.	.	.	.	.	.	.
.	.	.	.	16c	.	16G 16e	.	.	.	.	.	.	.	.	.	.	.	8C	.	.	.	.	.	.	.	.	.	.	.	.	.
.	.	.	.	16eJJ	.	16gJJ	.	.	.	.	.	.	.	.	.	.	.	.	.	.	.	.	.	.	.	.	.	.	.	.	.
!	!	!	!	!	!	!LO:N:n=1:vis=2	!	!	!	!	!	!	!	!	!	!	!	!	!	!	!	!	!	!	!	!	!	!	!	!	!
4C	.	.	.	16cLL	.	16GLL 16e	.	.	.	.	.	.	.	.	.	.	.	8C	.	.	.	.	.	4C	4C/	.	.	.	.	.	.
.	.	.	.	16e	.	16g	.	.	.	.	.	.	.	.	.	.	.	.	.	.	.	.	.	.	.	.	.	.	.	.	.
.	.	.	.	16c	.	16G 16e	.	.	.	.	.	.	.	.	.	.	.	8C	.	.	.	.	.	.	.	.	.	.	.	.	.
.	.	.	.	16eJJ	.	16gJJ	.	.	.	.	.	.	.	.	.	.	.	.	.	.	.	.	.	.	.	.	.	.	.	.	.
!	!	!	!	!	!	!LO:N:n=1:vis=2	!	!	!	!	!	!	!	!	!	!	!	!	!	!	!	!	!	!	!	!	!	!	!	!	!
4C	.	.	.	16cLL	.	16GLL 16e	.	8.eeL	.	4C	-us	4c	-us	4e	-us	4cc	-us	8C	.	8.cL	8.cL/	.	.	4C	4C/	.	.	.	.	8.eeL\	8.ccL
.	.	.	.	16e	.	16g	.	.	.	.	.	.	.	.	.	.	.	.	.	.	.	.	.	.	.	.	.	.	.	.	.
.	.	.	.	16c	.	16G 16e	.	.	.	.	.	.	.	.	.	.	.	8C	.	.	.	.	.	.	.	.	.	.	.	.	.
.	.	.	.	16eJJ	.	16gJJ	.	16eeK	.	.	.	.	.	.	.	.	.	.	.	16cK	16cK/	.	.	.	.	.	.	.	.	16eeK\	16ccK
!	!	!	!	!	!	!LO:N:n=1:vis=2	!	!	!	!	!	!	!	!	!	!	!	!	!	!	!	!	!	!	!	!	!	!	!	!	!
4C	.	.	.	16cLL	.	16GLL 16e	.	8.gg	.	4r	.	4r	.	4r	.	4r	.	8C	.	8.c	8.c/	.	.	4C	4C/	.	.	.	.	8.gg\	8.ee
.	.	.	.	16e	.	16g	.	.	.	.	.	.	.	.	.	.	.	.	.	.	.	.	.	.	.	.	.	.	.	.	.
.	.	.	.	16c	.	16G 16e	.	.	.	.	.	.	.	.	.	.	.	8CJ	.	.	.	.	.	.	.	.	.	.	.	.	.
.	.	.	.	16eJJ	.	16gJJ	.	16ggJk	.	.	.	.	.	.	.	.	.	.	.	16cJk	16cJk	.	.	.	.	.	.	.	.	16ggJk\	16eeJk
=10	=10	=10	=10	=10	=10	=10	=10	=10	=10	=10	=10	=10	=10	=10	=10	=10	=10	=10	=10	=10	=10	=10	=10	=10	=10	=10	=10	=10	=10	=10	=10
!	!	!	!	!LO:LB:g=original	!	!	!	!	!	!	!	!	!	!	!	!	!	!	!	!	!	!	!	!	!	!	!	!	!	!	!
4C	6 4	.	.	16cLL	.	16fLL	.	8.aaL	.	2C	Do-	2c	Do-	2a	Do-	2ff	Do-	8CL	1C	2c	2c/	1c	1cc	4C	4C/	.	2a	.	2ff	2aa\	2ff
.	.	.	.	16f	.	16a	.	.	.	.	.	.	.	.	.	.	.	.	.	.	.	.	.	.	.	.	.	.	.	.	.
.	.	.	.	16c	.	16f	.	.	.	.	.	.	.	.	.	.	.	8C	.	.	.	.	.	.	.	.	.	.	.	.	.
.	.	.	.	16fJJ	.	16aJJ	.	16aaK	.	.	.	.	.	.	.	.	.	.	.	.	.	.	.	.	.	.	.	.	.	.	.
4C	.	.	.	16cLL	.	16fLL	.	8.ff	.	.	.	.	.	.	.	.	.	8C	.	.	.	.	.	4C	4C/	.	.	.	.	.	.
.	.	.	.	16f	.	16a	.	.	.	.	.	.	.	.	.	.	.	.	.	.	.	.	.	.	.	.	.	.	.	.	.
.	.	.	.	16c	.	16f	.	.	.	.	.	.	.	.	.	.	.	8C	.	.	.	.	.	.	.	.	.	.	.	.	.
.	.	.	.	16fJJ	.	16aJJ	.	16ffJk	.	.	.	.	.	.	.	.	.	.	.	.	.	.	.	.	.	.	.	.	.	.	.
4C	5 3	.	.	16cLL	.	16eLL	.	8.eeL	.	4C	-mi-	4c	-mi-	4g	-mi-	4ee	-mi-	8C	.	2r	2ryy	.	.	4C	4C/	.	4g	.	4ee	4gg\	4ee
.	.	.	.	16e	.	16g	.	.	.	.	.	.	.	.	.	.	.	.	.	.	.	.	.	.	.	.	.	.	.	.	.
.	.	.	.	16c	.	16e	.	.	.	.	.	.	.	.	.	.	.	8C	.	.	.	.	.	.	.	.	.	.	.	.	.
.	.	.	.	16eJJ	.	16gJJ	.	16cccK	.	.	.	.	.	.	.	.	.	.	.	.	.	.	.	.	.	.	.	.	.	.	.
4C	7 2	.	.	16fLL	.	16dLL	.	8.dd	.	4C	-nus	4B	-nus	4f	-nus	4dd	-nus	8C	.	.	.	.	.	4C	4C/	.	4b/	.	4dd	4bb\	4dd
.	.	.	.	16d	.	16f	.	.	.	.	.	.	.	.	.	.	.	.	.	.	.	.	.	.	.	.	.	.	.	.	.
.	.	.	.	16f	.	16d	.	.	.	.	.	.	.	.	.	.	.	8CJ	.	.	.	.	.	.	.	.	.	.	.	.	.
.	.	.	.	16dJJ	.	16fJJ	.	16bbJk	.	.	.	.	.	.	.	.	.	.	.	.	.	.	.	.	.	.	.	.	.	.	.
!LO:LB:g=original	!	!	!	!	!	!LO:LB:g=original	!	!LO:LB:g=original	!	!	!	!	!	!	!	!	!	!	!	!	!	!	!	!	!	!	!	!	!	!	!
=11	=11	=11	=11	=11	=11	=11	=11	=11	=11	=11	=11	=11	=11	=11	=11	=11	=11	=11	=11	=11	=11	=11	=11	=11	=11	=11	=11	=11	=11	=11	=11
*	*	*	*	*tremolo	*	*	*	*	*	*	*	*	*	*	*	*	*	*	*	*	*	*	*	*	*	*	*	*	*	*	*
4C	.	.	.	16cLL	.	16eLL	.	8.eeL	.	2C	De-	2c	De-	2e	De-	2ee	De-	4C	2C	2cc	2e/	2cc	2ee	2C	2C/	.	2cc	.	2ee	2ccc\	2ee
.	.	.	.	16e	.	16g	.	.	.	.	.	.	.	.	.	.	.	.	.	.	.	.	.	.	.	.	.	.	.	.	.
.	.	.	.	16c	.	16cc	.	.	.	.	.	.	.	.	.	.	.	.	.	.	.	.	.	.	.	.	.	.	.	.	.
.	.	.	.	16e	.	16gJJ	.	16ggK	.	.	.	.	.	.	.	.	.	.	.	.	.	.	.	.	.	.	.	.	.	.	.
4C	.	.	.	16c	.	16eLL	.	8.gg	.	.	.	.	.	.	.	.	.	4r	.	.	.	.	.	.	.	.	.	.	.	.	.
.	.	.	.	16e	.	16g	.	.	.	.	.	.	.	.	.	.	.	.	.	.	.	.	.	.	.	.	.	.	.	.	.
.	.	.	.	16c	.	16cc	.	.	.	.	.	.	.	.	.	.	.	.	.	.	.	.	.	.	.	.	.	.	.	.	.
.	.	.	.	16eJJ	.	16gJJ	.	16ggJk	.	.	.	.	.	.	.	.	.	.	.	.	.	.	.	.	.	.	.	.	.	.	.
4BB	6	.	.	16BLL	.	16dLL	.	8.ddL	.	2BB	-us	2G	-us	2g	-us	2dd	-us	2r	2BB	2dd	2g/	2g	2dd	2BB	2BB/	.	2dd	.	2gg	2ddd\	2gg
.	.	.	.	16d	.	16g	.	.	.	.	.	.	.	.	.	.	.	.	.	.	.	.	.	.	.	.	.	.	.	.	.
.	.	.	.	16B	.	16dd	.	.	.	.	.	.	.	.	.	.	.	.	.	.	.	.	.	.	.	.	.	.	.	.	.
.	.	.	.	16d	.	16gJJ	.	16ggK	.	.	.	.	.	.	.	.	.	.	.	.	.	.	.	.	.	.	.	.	.	.	.
4BB	.	.	.	16B	.	16dLL	.	8.gg	.	.	.	.	.	.	.	.	.	.	.	.	.	.	.	.	.	.	.	.	.	.	.
.	.	.	.	16d	.	16g	.	.	.	.	.	.	.	.	.	.	.	.	.	.	.	.	.	.	.	.	.	.	.	.	.
.	.	.	.	16B	.	16dd	.	.	.	.	.	.	.	.	.	.	.	.	.	.	.	.	.	.	.	.	.	.	.	.	.
.	.	.	.	16dJJ	.	16gJJ	.	16ggJk	.	.	.	.	.	.	.	.	.	.	.	.	.	.	.	.	.	.	.	.	.	.	.
!	!	!	!	!	!	!	!	!	!	!	!	!	!	!	!	!	!	!	!	!	!	!	!	!	!	!	!	!	!	!LO:LB:g=original	!LO:LB:g=original
=12	=12	=12	=12	=12	=12	=12	=12	=12	=12	=12	=12	=12	=12	=12	=12	=12	=12	=12	=12	=12	=12	=12	=12	=12	=12	=12	=12	=12	=12	=12	=12
4AA	7	.	.	16ALL	.	16cLL	.	8.ccL	.	2.AA	Sa-	2.c	Sa-	2.g	Sa-	2.cc	Sa-	8CL	1AA	2cc\	2cc	1c	1cc	1AA	1AA	.	1cc	.	2.gg	1ccc	2.gg
.	.	.	.	16c	.	16g	.	.	.	.	.	.	.	.	.	.	.	.	.	.	.	.	.	.	.	.	.	.	.	.	.
.	.	.	.	16A	.	16cc	.	.	.	.	.	.	.	.	.	.	.	8C	.	.	.	.	.	.	.	.	.	.	.	.	.
.	.	.	.	16c	.	16gJJ	.	16ggK	.	.	.	.	.	.	.	.	.	.	.	.	.	.	.	.	.	.	.	.	.	.	.
4AA	.	.	.	16A	.	16cLL	.	8.gg	.	.	.	.	.	.	.	.	.	8C	.	.	.	.	.	.	.	.	.	.	.	.	.
.	.	.	.	16c	.	16g	.	.	.	.	.	.	.	.	.	.	.	.	.	.	.	.	.	.	.	.	.	.	.	.	.
.	.	.	.	16A	.	16cc	.	.	.	.	.	.	.	.	.	.	.	8C	.	.	.	.	.	.	.	.	.	.	.	.	.
.	.	.	.	16cJJ	.	16gJJ	.	16ggJk	.	.	.	.	.	.	.	.	.	.	.	.	.	.	.	.	.	.	.	.	.	.	.
4AA	.	.	.	16ALL	.	16cLL	.	8.ccL	.	.	.	.	.	.	.	.	.	8C	.	8.ccL\	8.ccL	.	.	.	.	.	.	.	.	.	.
.	.	.	.	16c	.	16g	.	.	.	.	.	.	.	.	.	.	.	.	.	.	.	.	.	.	.	.	.	.	.	.	.
.	.	.	.	16A	.	16cc	.	.	.	.	.	.	.	.	.	.	.	8C	.	.	.	.	.	.	.	.	.	.	.	.	.
.	.	.	.	16c	.	16gJJ	.	16ggK	.	.	.	.	.	.	.	.	.	.	.	16ccK	16ccK	.	.	.	.	.	.	.	.	.	.
4AA	#6	.	.	16A	.	16cLL	.	8.cc	.	4AA	-ba-	4c	-ba-	4f#X	-ba-	4cc	-ba-	8C	.	8.cc	8.cc	.	.	.	.	.	.	.	4ff#X	.	4ff#X
.	.	.	.	16c	.	16f#X	.	.	.	.	.	.	.	.	.	.	.	.	.	.	.	.	.	.	.	.	.	.	.	.	.
.	.	.	.	16A	.	16a	.	.	.	.	.	.	.	.	.	.	.	8CJ	.	.	.	.	.	.	.	.	.	.	.	.	.
.	.	.	.	16cJJ	.	16cJJ	.	16ff#XJk	.	.	.	.	.	.	.	.	.	.	.	16ccJk	16ccJk	.	.	.	.	.	.	.	.	.	.
!	!	!	!	!	!	!	!	!	!	!	!	!	!	!	!	!	!	!	!	!LO:LB:g=original	!LO:LB:g=original	!	!	!	!	!	!	!	!	!	!
=13	=13	=13	=13	=13	=13	=13	=13	=13	=13	=13	=13	=13	=13	=13	=13	=13	=13	=13	=13	=13	=13	=13	=13	=13	=13	=13	=13	=13	=13	=13	=13
*	*	*	*	*	*	*tremolo	*	*	*	*	*	*	*	*	*	*	*	*	*	*	*	*	*	*	*	*	*	*	*	*	*
4GG	.	.	.	16GLL	.	16BLL	.	8.ggL	.	2GG	-oth	2d	-oth	2g	-oth	2b	-oth	8GGL	1GG	1dd	1g	4g	4dd	4GG	4GG/	.	4b/	.	4gg	1bb	1gg
.	.	.	.	16B	.	16d	.	.	.	.	.	.	.	.	.	.	.	.	.	.	.	.	.	.	.	.	.	.	.	.	.
.	.	.	.	16G	.	16B	.	.	.	.	.	.	.	.	.	.	.	8GG	.	.	.	.	.	.	.	.	.	.	.	.	.
.	.	.	.	16B	.	16d	.	16gK	.	.	.	.	.	.	.	.	.	.	.	.	.	.	.	.	.	.	.	.	.	.	.
4G	.	.	.	16G	.	16B	.	8.b	.	.	.	.	.	.	.	.	.	8GG	.	.	.	4r	4r	4G\	4G	.	4r	.	4r	.	.
.	.	.	.	16B	.	16d	.	.	.	.	.	.	.	.	.	.	.	.	.	.	.	.	.	.	.	.	.	.	.	.	.
.	.	.	.	16G	.	16B	.	.	.	.	.	.	.	.	.	.	.	8GG	.	.	.	.	.	.	.	.	.	.	.	.	.
.	.	.	.	16BJJ	.	16dJJ	.	16ddJk	.	.	.	.	.	.	.	.	.	.	.	.	.	.	.	.	.	.	.	.	.	.	.
4D	.	.	.	16GLL	.	16BLL	.	8.ggL	.	2r	.	2r	.	2r	.	2r	.	8GG	.	.	.	4g	4dd	4D\	4D	.	4b/	.	4gg	.	.
.	.	.	.	16B	.	16d	.	.	.	.	.	.	.	.	.	.	.	.	.	.	.	.	.	.	.	.	.	.	.	.	.
.	.	.	.	16G	.	16B	.	.	.	.	.	.	.	.	.	.	.	8GG	.	.	.	.	.	.	.	.	.	.	.	.	.
.	.	.	.	16B	.	16d	.	16GK	.	.	.	.	.	.	.	.	.	.	.	.	.	.	.	.	.	.	.	.	.	.	.
4BB	.	.	.	16G	.	16B	.	8.B	.	.	.	.	.	.	.	.	.	8GG	.	.	.	4r	4r	4BB	4BB/	.	4r	.	4r	.	.
.	.	.	.	16B	.	16d	.	.	.	.	.	.	.	.	.	.	.	.	.	.	.	.	.	.	.	.	.	.	.	.	.
.	.	.	.	16G	.	16B	.	.	.	.	.	.	.	.	.	.	.	8GGJ	.	.	.	.	.	.	.	.	.	.	.	.	.
.	.	.	.	16BJJ	.	16dJJ	.	16dJk	.	.	.	.	.	.	.	.	.	.	.	.	.	.	.	.	.	.	.	.	.	.	.
=14||	=14||	=14||	=14||	=14||	=14||	=14||	=14||	=14||	=14||	=14||	=14||	=14||	=14||	=14||	=14||	=14||	=14||	=14||	=14||	=14||	=14||	=14||	=14||	=14||	=14||	=14||	=14||	=14||	=14||	=14||	=14||
!	!	!	!	!	!	!	!	!	!	!	!	!	!	!	!	!	!	!	!	!	!	!	!	!	!	!	!	!	!	!LO:TX:a:B:t=Allegro	!
4GG	.	.	.	4G	.	4B 4d	.	4g	.	1r	.	1r	.	1r	.	4r	.	4GG	4GG	4dd	4g/	4g	4dd	4GG	4GG/	.	4b/	.	4gg	4bb\	4gg
*	*	*	*	*	*	*	*	*tremolo	*	*	*	*	*	*	*	*	*	*	*	*	*	*	*	*	*	*	*	*	*	*	*
4r	.	.	.	4r	.	4r	.	16gLL	.	.	.	.	.	.	.	4g	ple-	4r	4r	4r	4ryy	4r	4r	4r	4ryy	.	4r	.	4g	4r	4ryy
.	.	.	.	.	.	.	.	16g	.	.	.	.	.	.	.	.	.	.	.	.	.	.	.	.	.	.	.	.	.	.	.
.	.	.	.	.	.	.	.	16g	.	.	.	.	.	.	.	.	.	.	.	.	.	.	.	.	.	.	.	.	.	.	.
.	.	.	.	.	.	.	.	16gJJ	.	.	.	.	.	.	.	.	.	.	.	.	.	.	.	.	.	.	.	.	.	.	.
2r	.	.	.	2r	.	2r	.	16aLL	.	.	.	.	.	.	.	4a	-ni	2r	2r	2r	2ryy	2r	2r	2r	2ryy	.	2r	.	4a	2r	2ryy
.	.	.	.	.	.	.	.	16a	.	.	.	.	.	.	.	.	.	.	.	.	.	.	.	.	.	.	.	.	.	.	.
.	.	.	.	.	.	.	.	16a	.	.	.	.	.	.	.	.	.	.	.	.	.	.	.	.	.	.	.	.	.	.	.
.	.	.	.	.	.	.	.	16aJJ	.	.	.	.	.	.	.	.	.	.	.	.	.	.	.	.	.	.	.	.	.	.	.
.	.	.	.	.	.	.	.	16bLL/	.	.	.	.	.	.	.	4b	sunt	.	.	.	.	.	.	.	.	.	.	.	4b/	.	.
.	.	.	.	.	.	.	.	16b	.	.	.	.	.	.	.	.	.	.	.	.	.	.	.	.	.	.	.	.	.	.	.
.	.	.	.	.	.	.	.	16b	.	.	.	.	.	.	.	.	.	.	.	.	.	.	.	.	.	.	.	.	.	.	.
.	.	.	.	.	.	.	.	16bJJ	.	.	.	.	.	.	.	.	.	.	.	.	.	.	.	.	.	.	.	.	.	.	.
!	!	!	!	!LO:LB:g=original	!	!	!	!	!	!	!	!	!	!	!	!	!	!	!	!	!	!LO:LB:g=original	!LO:LB:g=original	!	!	!	!	!	!	!	!
=15	=15	=15	=15	=15	=15	=15	=15	=15	=15	=15	=15	=15	=15	=15	=15	=15	=15	=15	=15	=15	=15	=15	=15	=15	=15	=15	=15	=15	=15	=15	=15
*^	*	*	*	*	*	*	*	*	*	*	*	*	*	*	*	*	*	*	*	*	*	*	*	*	*	*	*	*	*	*	*
4rc	1rEE	.	.	.	4r	.	4r	.	16ccLL	.	1r	.	4r	.	4r	.	[>1cc	coe-	1r	1r	1r	1ryy	1r	4r	4r	1r	.	4r	.	1cc	4r	4ryy
.	.	.	.	.	.	.	.	.	16cc	.	.	.	.	.	.	.	.	.	.	.	.	.	.	.	.	.	.	.	.	.	.	.
.	.	.	.	.	.	.	.	.	16cc	.	.	.	.	.	.	.	.	.	.	.	.	.	.	.	.	.	.	.	.	.	.	.
.	.	.	.	.	.	.	.	.	16cc	.	.	.	.	.	.	.	.	.	.	.	.	.	.	.	.	.	.	.	.	.	.	.
4c	.	.	.	.	16cLL	.	16eLL	.	16cc	.	.	.	4c	ple-	4e	ple-	.	.	.	.	.	.	.	4cc	4c	.	.	4e	.	.	4ee\	4ee
.	.	.	.	.	16c	.	16e	.	16cc	.	.	.	.	.	.	.	.	.	.	.	.	.	.	.	.	.	.	.	.	.	.	.
.	.	.	.	.	16c	.	16e	.	16cc	.	.	.	.	.	.	.	.	.	.	.	.	.	.	.	.	.	.	.	.	.	.	.
.	.	.	.	.	16cJJ	.	16eJJ	.	16ccJJ	.	.	.	.	.	.	.	.	.	.	.	.	.	.	.	.	.	.	.	.	.	.	.
4d	.	.	.	.	16dLL	.	16fLL	.	16ccLL	.	.	.	4d	-ni	4f	-ni	.	.	.	.	.	.	.	4dd	4d	.	.	4f	.	.	4ff\	4ff
.	.	.	.	.	16d	.	16f	.	16cc	.	.	.	.	.	.	.	.	.	.	.	.	.	.	.	.	.	.	.	.	.	.	.
.	.	.	.	.	16d	.	16f	.	16cc	.	.	.	.	.	.	.	.	.	.	.	.	.	.	.	.	.	.	.	.	.	.	.
.	.	.	.	.	16dJJ	.	16fJJ	.	16cc	.	.	.	.	.	.	.	.	.	.	.	.	.	.	.	.	.	.	.	.	.	.	.
4e	.	.	.	.	16eLL	.	16gLL	.	16cc	.	.	.	4e	sunt	4g	sunt	.	.	.	.	.	.	.	4ee	4e	.	.	4g	.	.	4gg\	4gg
.	.	.	.	.	16e	.	16g	.	16cc	.	.	.	.	.	.	.	.	.	.	.	.	.	.	.	.	.	.	.	.	.	.	.
.	.	.	.	.	16e	.	16g	.	16cc	.	.	.	.	.	.	.	.	.	.	.	.	.	.	.	.	.	.	.	.	.	.	.
.	.	.	.	.	16eJJ	.	16gJJ	.	16ccJJ	.	.	.	.	.	.	.	.	.	.	.	.	.	.	.	.	.	.	.	.	.	.	.
!	!	!	!	!	!	!	!	!	!	!	!	!LO:LB:g=original	!	!LO:LB:g=original	!	!	!	!	!	!	!	!	!	!LO:LB:g=original	!LO:LB:g=original	!	!	!	!	!	!	!
=16	=16	=16	=16	=16	=16	=16	=16	=16	=16	=16	=16	=16	=16	=16	=16	=16	=16	=16	=16	=16	=16	=16	=16	=16	=16	=16	=16	=16	=16	=16	=16	=16
4f	4rEE	.	.	.	16fLL	.	16aLL	.	16ccLL	.	4r	.	2f	coe-	2a	coe-	2.cc]	-li	1r	1r	1r	1ryy	4r	1ff	4f	4r	.	2.a	.	2.cc	4aa	4aa
.	.	.	.	.	16f	.	16a	.	16cc	.	.	.	.	.	.	.	.	.	.	.	.	.	.	.	.	.	.	.	.	.	.	.
.	.	.	.	.	16f	.	16a	.	16cc	.	.	.	.	.	.	.	.	.	.	.	.	.	.	.	.	.	.	.	.	.	.	.
.	.	.	.	.	16fJJ	.	16a	.	16cc	.	.	.	.	.	.	.	.	.	.	.	.	.	.	.	.	.	.	.	.	.	.	.
4rcyy	8FL	.	.	.	16fLL	.	16a	.	16cc	.	4F	ple-	.	.	.	.	.	.	.	.	.	.	4cc	.	4F\	4F	.	.	.	.	4aa\	2cc
.	.	.	.	.	16f	.	16a	.	16cc	.	.	.	.	.	.	.	.	.	.	.	.	.	.	.	.	.	.	.	.	.	.	.
.	8FJ	.	.	.	16f	.	16a	.	16cc	.	.	.	.	.	.	.	.	.	.	.	.	.	.	.	.	.	.	.	.	.	.	.
.	.	.	.	.	16fJJ	.	16aJJ	.	16cc	.	.	.	.	.	.	.	.	.	.	.	.	.	.	.	.	.	.	.	.	.	.	.
2rcyy	8AL	.	.	.	16aLL	.	16aLL	.	16cc	.	4A	-ni	4f	-li	4a	-li	.	.	.	.	.	.	4cc	.	4A\	4A	.	.	.	.	4ccc\	.
.	.	.	.	.	16a	.	16a	.	16cc	.	.	.	.	.	.	.	.	.	.	.	.	.	.	.	.	.	.	.	.	.	.	.
.	8A	.	.	.	16a	.	16a	.	16cc	.	.	.	.	.	.	.	.	.	.	.	.	.	.	.	.	.	.	.	.	.	.	.
.	.	.	.	.	16aJJ	.	16aJJ	.	16ccJJ	.	.	.	.	.	.	.	.	.	.	.	.	.	.	.	.	.	.	.	.	.	.	.
.	8F	.	.	.	16fLL	.	16ccLL	.	16aaLL	.	4F	sunt	4c	et	4a	et	4cc	et	.	.	.	.	4cc	.	4F\	4F	.	4cc	.	4aa	4aa\	4cc
.	.	.	.	.	16f	.	16cc	.	16aa	.	.	.	.	.	.	.	.	.	.	.	.	.	.	.	.	.	.	.	.	.	.	.
.	8FJ	.	.	.	16f	.	16cc	.	16aa	.	.	.	.	.	.	.	.	.	.	.	.	.	.	.	.	.	.	.	.	.	.	.
.	.	.	.	.	16fJJ	.	16ccJJ	.	16aaJJ	.	.	.	.	.	.	.	.	.	.	.	.	.	.	.	.	.	.	.	.	.	.	.
*v	*v	*	*	*	*	*	*	*	*	*	*	*	*	*	*	*	*	*	*	*	*	*	*	*	*	*	*	*	*	*	*	*
!LO:LB:g=original	!	!	!	!	!	!LO:LB:g=original	!	!LO:LB:g=original	!	!LO:LB:g=original	!	!	!	!	!	!	!	!LO:LB:g=original	!LO:LB:g=original	!	!	!	!	!	!	!	!LO:LB:g=original	!	!LO:LB:G=original	!	!
=17	=17	=17	=17	=17	=17	=17	=17	=17	=17	=17	=17	=17	=17	=17	=17	=17	=17	=17	=17	=17	=17	=17	=17	=17	=17	=17	=17	=17	=17	=17	=17
8EL	6	.	.	16eLL	.	16ccLL	.	16ggLL	.	4E	coe-	2c	coe-	4g	coe-	[1cc	ter-	8CL	4r	4r	4ryy	1cc	1cc	4E\	4E	.	1cc	.	4gg	4gg\	4cc
.	.	.	.	16e	.	16cc	.	16gg	.	.	.	.	.	.	.	.	.	.	.	.	.	.	.	.	.	.	.	.	.	.	.
8E	.	.	.	16e	.	16cc	.	16gg	.	.	.	.	.	.	.	.	.	8C	.	.	.	.	.	.	.	.	.	.	.	.	.
.	.	.	.	16eJJ	.	16cc	.	16ggJJ	.	.	.	.	.	.	.	.	.	.	.	.	.	.	.	.	.	.	.	.	.	.	.
8F	.	.	.	16fLL	.	16cc	.	16aaLL	.	8F	-li	.	.	8a	-li	.	.	8C	4F	4cc	4c/	.	.	4F\	4F	.	.	.	4aa	4aa\	4cc
.	.	.	.	16f	.	16cc	.	16aa	.	.	.	.	.	.	.	.	.	.	.	.	.	.	.	.	.	.	.	.	.	.	.
8FJ	.	.	.	16f	.	16cc	.	16aa	.	8F	et	.	.	8a	et	.	.	8C	.	.	.	.	.	.	.	.	.	.	.	.	.
.	.	.	.	16fJJ	.	16ccJJ	.	16aaJJ	.	.	.	.	.	.	.	.	.	.	.	.	.	.	.	.	.	.	.	.	.	.	.
8EL	6	.	.	16eLL	.	16ccLL	.	16ggLL	.	4E	ter-	4c	-li	4g	ter-	.	.	8C	4E	4cc	4c/	.	.	4E\	4E	.	.	.	4gg	4gg\	4cc
.	.	.	.	16e	.	16cc	.	16gg	.	.	.	.	.	.	.	.	.	.	.	.	.	.	.	.	.	.	.	.	.	.	.
8E	.	.	.	16e	.	16cc	.	16gg	.	.	.	.	.	.	.	.	.	8C	.	.	.	.	.	.	.	.	.	.	.	.	.
.	.	.	.	16eJJ	.	16cc	.	16ggJJ	.	.	.	.	.	.	.	.	.	.	.	.	.	.	.	.	.	.	.	.	.	.	.
8F	.	.	.	16fLL	.	16cc	.	16aaLL	.	4F	-ra	4c	et	4a	-ra	.	.	8C	4F	4cc	4c/	.	.	4F\	4F	.	.	.	4aa	4aa\	4cc
.	.	.	.	16f	.	16cc	.	16aa	.	.	.	.	.	.	.	.	.	.	.	.	.	.	.	.	.	.	.	.	.	.	.
8FJ	.	.	.	16f	.	16cc	.	16aa	.	.	.	.	.	.	.	.	.	8CJ	.	.	.	.	.	.	.	.	.	.	.	.	.
.	.	.	.	16fJJ	.	16ccJJ	.	16aaJJ	.	.	.	.	.	.	.	.	.	.	.	.	.	.	.	.	.	.	.	.	.	.	.
=18	=18	=18	=18	=18	=18	=18	=18	=18	=18	=18	=18	=18	=18	=18	=18	=18	=18	=18	=18	=18	=18	=18	=18	=18	=18	=18	=18	=18	=18	=18	=18
!	!	!	!	!	!	!	!	!	!	!LO:TX:a:t=problem: brak litery "e" w słowie "coeli"	!	!	!	!	!	!	!	!	!	!	!	!	!	!	!	!	!	!	!	!	!
8EL	6	.	.	16eLL	.	16ccLL	.	16ggLL	.	4E	co-	2c	ter-	4g	coe-	2cc]	.	8CL	4E	1cc	1c	2cc	2cc	4E\	4E	.	2cc	.	4gg	4gg\	4cc
.	.	.	.	16e	.	16cc	.	16gg	.	.	.	.	.	.	.	.	.	.	.	.	.	.	.	.	.	.	.	.	.	.	.
8E	.	.	.	16e	.	16cc	.	16gg	.	.	.	.	.	.	.	.	.	8C	.	.	.	.	.	.	.	.	.	.	.	.	.
.	.	.	.	16eJJ	.	16cc	.	16ggJJ	.	.	.	.	.	.	.	.	.	.	.	.	.	.	.	.	.	.	.	.	.	.	.
8F	.	.	.	16fLL	.	16cc	.	16aaLL	.	8F	-li	.	.	8a	-li	.	.	8C	4F	.	.	.	.	4F\	4F	.	.	.	4aa	4aa\	4cc
.	.	.	.	16f	.	16cc	.	16aa	.	.	.	.	.	.	.	.	.	.	.	.	.	.	.	.	.	.	.	.	.	.	.
8FJ	.	.	.	16f	.	16cc	.	16aa	.	8F	et	.	.	8a	et	.	.	8C	.	.	.	.	.	.	.	.	.	.	.	.	.
.	.	.	.	16fJJ	.	16ccJJ	.	16aaJJ	.	.	.	.	.	.	.	.	.	.	.	.	.	.	.	.	.	.	.	.	.	.	.
8EL	6	.	.	16eLL	.	16ccLL	.	16ggLL	.	4E	ter-	2c	-ra	4g	ter-	2cc	-ra	8C	4E	.	.	2cc	2cc	4E\	4E	.	2cc	.	4gg	4gg\	4cc
.	.	.	.	16e	.	16cc	.	16gg	.	.	.	.	.	.	.	.	.	.	.	.	.	.	.	.	.	.	.	.	.	.	.
8E	.	.	.	16e	.	16cc	.	16gg	.	.	.	.	.	.	.	.	.	8C	.	.	.	.	.	.	.	.	.	.	.	.	.
.	.	.	.	16eJJ	.	16cc	.	16ggJJ	.	.	.	.	.	.	.	.	.	.	.	.	.	.	.	.	.	.	.	.	.	.	.
8F	.	.	.	16fLL	.	16cc	.	16aaLL	.	4F	-ra	.	.	4a	-ra	.	.	8C	4F	.	.	.	.	4F\	4F	.	.	.	4aa	4aa\	4cc
.	.	.	.	16f	.	16cc	.	16aa	.	.	.	.	.	.	.	.	.	.	.	.	.	.	.	.	.	.	.	.	.	.	.
8FJ	.	.	.	16f	.	16cc	.	16aa	.	.	.	.	.	.	.	.	.	8CJ	.	.	.	.	.	.	.	.	.	.	.	.	.
.	.	.	.	16fJJ	.	16ccJJ	.	16aaJJ	.	.	.	.	.	.	.	.	.	.	.	.	.	.	.	.	.	.	.	.	.	.	.
=19	=19	=19	=19	=19	=19	=19	=19	=19	=19	=19	=19	=19	=19	=19	=19	=19	=19	=19	=19	=19	=19	=19	=19	=19	=19	=19	=19	=19	=19	=19	=19
8GL	6 4	.	.	8gL	.	16ccLL 16ee	.	16ggLL	.	2G	glo-	2c	glo-	2g	glo-	2ee	glo-	8CL	1G	1ee	1cc	1cc	1ee	4G\	4G	.	1cc	.	1ee	2gg\	2ee
.	.	.	.	.	.	16cc 16ee	.	16gg	.	.	.	.	.	.	.	.	.	.	.	.	.	.	.	.	.	.	.	.	.	.	.
8G	.	.	.	8g	.	16cc 16ee	.	16gg	.	.	.	.	.	.	.	.	.	8C	.	.	.	.	.	.	.	.	.	.	.	.	.
.	.	.	.	.	.	16cc 16ee	.	16gg	.	.	.	.	.	.	.	.	.	.	.	.	.	.	.	.	.	.	.	.	.	.	.
8G	.	.	.	8g	.	16cc 16ee	.	16gg	.	.	.	.	.	.	.	.	.	8C	.	.	.	.	.	4G\	4G	.	.	.	.	.	.
.	.	.	.	.	.	16cc 16ee	.	16gg	.	.	.	.	.	.	.	.	.	.	.	.	.	.	.	.	.	.	.	.	.	.	.
8GJ	.	.	.	8gJ	.	16cc 16ee	.	16gg	.	.	.	.	.	.	.	.	.	8C	.	.	.	.	.	.	.	.	.	.	.	.	.
.	.	.	.	.	.	16ccJJ 16ee	.	16ggJJ	.	.	.	.	.	.	.	.	.	.	.	.	.	.	.	.	.	.	.	.	.	.	.
8GL	.	.	.	8gL	.	16ccLL 16ee	.	16cccLL	.	4G	-ri-	4c	-ri-	4g	-ri-	4ee	-ri-	8C	.	.	.	.	.	4G\	4G	.	.	.	.	2ccc\	2ee
.	.	.	.	.	.	16cc 16ee	.	16ccc	.	.	.	.	.	.	.	.	.	.	.	.	.	.	.	.	.	.	.	.	.	.	.
8G	.	.	.	8g	.	16cc 16ee	.	16ccc	.	.	.	.	.	.	.	.	.	8C	.	.	.	.	.	.	.	.	.	.	.	.	.
.	.	.	.	.	.	16cc 16ee	.	16ccc	.	.	.	.	.	.	.	.	.	.	.	.	.	.	.	.	.	.	.	.	.	.	.
8G	.	.	.	8g	.	16cc 16ee	.	16ccc	.	4G	-ae	4c	-ae	4g	-ae	4ee	-ae	8C	.	.	.	.	.	4G\	4G	.	.	.	.	.	.
.	.	.	.	.	.	16cc 16ee	.	16ccc	.	.	.	.	.	.	.	.	.	.	.	.	.	.	.	.	.	.	.	.	.	.	.
8GJ	.	.	.	8gJ	.	16cc 16ee	.	16ccc	.	.	.	.	.	.	.	.	.	8CJ	.	.	.	.	.	.	.	.	.	.	.	.	.
.	.	.	.	.	.	16ccJJ 16ee	.	16cccJJ	.	.	.	.	.	.	.	.	.	.	.	.	.	.	.	.	.	.	.	.	.	.	.
=20	=20	=20	=20	=20	=20	=20	=20	=20	=20	=20	=20	=20	=20	=20	=20	=20	=20	=20	=20	=20	=20	=20	=20	=20	=20	=20	=20	=20	=20	=20	=20
8GGL	6 4	.	.	8GL	.	16ddLL	.	16cccLL	.	1G	tu-	(>2c	tu-	1g	tu-	1dd	tu-	8GGL	1GG	1dd	2cc	2cc	1dd	4GG	4GG/	.	2cc	.	1dd	2ccc\	2dd
.	.	.	.	.	.	16dd	.	16ccc	.	.	.	.	.	.	.	.	.	.	.	.	.	.	.	.	.	.	.	.	.	.	.
8GG	.	.	.	8G	.	16dd	.	16ccc	.	.	.	.	.	.	.	.	.	8GG	.	.	.	.	.	.	.	.	.	.	.	.	.
.	.	.	.	.	.	16dd	.	16ccc	.	.	.	.	.	.	.	.	.	.	.	.	.	.	.	.	.	.	.	.	.	.	.
8GG	.	.	.	8G	.	16dd	.	16ccc	.	.	.	.	.	.	.	.	.	8GG	.	.	.	.	.	4GG	4GG/	.	.	.	.	.	.
.	.	.	.	.	.	16dd	.	16ccc	.	.	.	.	.	.	.	.	.	.	.	.	.	.	.	.	.	.	.	.	.	.	.
8GGJ	.	.	.	8GJ	.	16dd	.	16ccc	.	.	.	.	.	.	.	.	.	8GG	.	.	.	.	.	.	.	.	.	.	.	.	.
.	.	.	.	.	.	16ddJJ	.	16cccJJ	.	.	.	.	.	.	.	.	.	.	.	.	.	.	.	.	.	.	.	.	.	.	.
8GGL	6 3	.	.	8GL	.	16ddLL	.	16bbLL	.	.	.	2B)	.	.	.	.	.	8GG	.	.	2g	2g	.	4GG	4GG/	.	2b	.	.	2bb\	2dd
.	.	.	.	.	.	16dd	.	16bb	.	.	.	.	.	.	.	.	.	.	.	.	.	.	.	.	.	.	.	.	.	.	.
8GG	.	.	.	8G	.	16dd	.	16bb	.	.	.	.	.	.	.	.	.	8GG	.	.	.	.	.	.	.	.	.	.	.	.	.
.	.	.	.	.	.	16dd	.	16bb	.	.	.	.	.	.	.	.	.	.	.	.	.	.	.	.	.	.	.	.	.	.	.
8GG	.	.	.	8G	.	16dd	.	16bb	.	.	.	.	.	.	.	.	.	8GG	.	.	.	.	.	4GG	4GG/	.	.	.	.	.	.
.	.	.	.	.	.	16dd	.	16bb	.	.	.	.	.	.	.	.	.	.	.	.	.	.	.	.	.	.	.	.	.	.	.
8GGJ	.	.	.	8GJ	.	16dd	.	16bb	.	.	.	.	.	.	.	.	.	8GGJ	.	.	.	.	.	.	.	.	.	.	.	.	.
.	.	.	.	.	.	16ddJJ	.	16bbJJ	.	.	.	.	.	.	.	.	.	.	.	.	.	.	.	.	.	.	.	.	.	.	.
*	*	*	*	*Xtremolo	*	*Xtremolo	*	*Xtremolo	*	*	*	*	*	*	*	*	*	*	*	*	*	*	*	*	*	*	*	*	*	*	*
*	*	*	*	*	*	*	*	*	*	*	*	*	*	*	*	*	*	*	*	*v	*v	*	*	*v	*v	*	*	*	*	*v	*v
=21||	=21||	=21||	=21||	=21||	=21||	=21||	=21||	=21||	=21||	=21||	=21||	=21||	=21||	=21||	=21||	=21||	=21||	=21||	=21||	=21||	=21||	=21||	=21||	=21||	=21||	=21||	=21||	=21||
*M4/4	*	*	*	*M4/4	*	*M4/4	*	*M4/4	*	*M4/4	*	*M4/4	*	*M4/4	*	*M4/4	*	*M4/4	*M4/4	*M4/4	*M4/4	*M4/4	*M4/4	*	*M4/4	*	*M4/4	*M4/4
*met(c)	*	*	*	*met(c)	*	*met(c)	*	*met(c)	*	*met(c)	*	*met(c)	*	*met(c)	*	*met(c)	*	*met(c)	*met(c)	*met(c)	*met(c)	*met(c)	*met(c)	*	*met(c)	*	*met(c)	*met(c)
*	*	*	*	*	*	*	*	*	*	*	*	*	*	*	*	*	*	*	*	*^	*	*	*^	*	*	*	*	*^
!	!	!	!	!	!	!	!	!	!	!	!	!	!	!	!	!	!	!	!	!	!	!	!	!	!	!	!	!	!	!LO:TX:a:B:t=piu Allegro	!
2C	.	.	.	2c	.	2cc 2ee	.	2ccc	.	2C	-ae	2c	-ae	2g	-ae	2ee	-ae	2C	2C	2cc	2e/	2cc	2ee	2C	2C/	.	2cc	.	2cc	2ccc\	2ee
2E	.	.	.	2r	.	4r	.	2r	.	2E	O	2r	.	4r	.	2r	.	2r	2r	2r	2ryy	2r	2r	(>2E\	<2E	f	2r	.	2r	2r	2ryy
.	.	.	.	.	.	4g	.	.	.	.	.	.	.	4g	O	.	.	.	.	.	.	.	.	.	.	.	.	.	.	.	.
!LO:LB:g=original	!	!	!	!LO:LB:g=original	!	!	!	!	!	!	!	!	!	!LO:LB:g=original	!	!	!	!	!	!	!	!	!	!	!	!	!	!	!	!	!
=22	=22	=22	=22	=22	=22	=22	=22	=22	=22	=22	=22	=22	=22	=22	=22	=22	=22	=22	=22	=22	=22	=22	=22	=22	=22	=22	=22	=22	=22	=22	=22
[1F	3	.	.	1r	.	4a	.	2r	.	1F	-san	1r	.	4a	san-	1r	.	1r	1r	1r	1ryy	1r	1r	1F	1Fyy	.	1r	.	1r	1r	1ryy
.	.	.	.	.	.	4b/	.	.	.	.	.	.	.	4b	.	.	.	.	.	.	.	.	.	.	.	.	.	.	.	.	.
.	6	.	.	.	.	4cc/	.	(>2aa	.	.	.	.	.	4cc	.	.	.	.	.	.	.	.	.	.	.	.	.	.	.	.	.
.	.	.	.	.	.	4dd/	.	.	.	.	.	.	.	4dd	.	.	.	.	.	.	.	.	.	.	.	.	.	.	.	.	.
!	!	!	!	!	!	!LO:LB:g=original	!	!	!	!	!	!	!	!	!	!	!	!	!	!	!	!	!	!	!	!	!	!	!	!	!
=23	=23	=23	=23	=23	=23	=23	=23	=23	=23	=23	=23	=23	=23	=23	=23	=23	=23	=23	=23	=23	=23	=23	=23	=23	=23	=23	=23	=23	=23	=23	=23
2F]	2	.	.	1r	.	4b	.	1gg	.	2F	.	1r	.	4b	.	1r	.	1r	1r	1r	1ryy	1r	1r	2F\)	2F	.	1r	.	1r	1r	1ryy
.	.	.	.	.	.	4g	.	.	.	.	.	.	.	4g	.	.	.	.	.	.	.	.	.	.	.	.	.	.	.	.	.
2E	6	.	.	.	.	[2cc	.	.	.	2E	.	.	.	[2cc	.	.	.	.	.	.	.	.	.	2E\	2E	.	.	.	.	.	.
=24	=24	=24	=24	=24	=24	=24	=24	=24	=24	=24	=24	=24	=24	=24	=24	=24	=24	=24	=24	=24	=24	=24	=24	=24	=24	=24	=24	=24	=24	=24	=24
1D	7	.	.	1r	.	4cc]	.	1ff	.	1D	.	1r	.	4cc]	.	1r	.	1r	1r	1r	1ryy	1r	1r	1D	1Dyy	.	1r	.	1r	1r	1ryy
.	.	.	.	.	.	8bL	.	.	.	.	.	.	.	8bL	.	.	.	.	.	.	.	.	.	.	.	.	.	.	.	.	.
.	6	.	.	.	.	8aJ	.	.	.	.	.	.	.	8aJ	.	.	.	.	.	.	.	.	.	.	.	.	.	.	.	.	.
.	.	.	.	.	.	2b	.	.	.	.	.	.	.	2b	.	.	.	.	.	.	.	.	.	.	.	.	.	.	.	.	.
!	!	!	!	!	!	!	!	!LO:LB:g=original	!	!LO:LB:g=original	!	!	!	!	!	!	!	!	!	!	!	!	!	!	!	!	!	!	!	!	!
=25	=25	=25	=25	=25	=25	=25	=25	=25	=25	=25	=25	=25	=25	=25	=25	=25	=25	=25	=25	=25	=25	=25	=25	=25	=25	=25	=25	=25	=25	=25	=25
!	!	!	!	!	!	!	!	!	!	!LO:TX:a:t=problem: brak "na" w słowie "sanna"	!	!	!	!	!	!	!	!	!	!	!	!	!	!	!	!	!	!	!	!	!
2C	.	.	.	2r	.	1cc	.	1ee	.	2C	.	1r	.	1cc	.	2r	.	1r	1r	1r	1ryy	1r	1r	2C	2C/	.	1r	.	1r	1rcyy	2r
4r	.	.	.	4r	.	.	.	.	.	4r	.	.	.	.	.	(>2ee	O	.	.	.	.	.	.	4r	4ryy	.	.	.	.	.	2eee
4C	.	.	.	4c	.	.	.	.	.	4C	O	.	.	.	.	.	.	.	.	.	.	.	.	4C	4C/	.	.	.	.	.	.
=26	=26	=26	=26	=26	=26	=26	=26	=26	=26	=26	=26	=26	=26	=26	=26	=26	=26	=26	=26	=26	=26	=26	=26	=26	=26	=26	=26	=26	=26	=26	=26
!	!	!	!	!	!	!	!	!	!	!	!	!	!	!	!	!	!	!	!	!	!	!	!	!	!	!	!	!	!	!LO:TX:a:t=2do	!
4D	8 7	.	.	4d	.	2.cc	.	1dd	.	4D	san-	2r	.	2.cc	.	1dd)	san-	1r	1r	1r	1ryy	1r	1r	4D\	4D	.	1r	.	1r	1ryy	1ddd
4E	.	.	.	4e	.	.	.	.	.	4E	.	.	.	.	.	.	.	.	.	.	.	.	.	4E\	4E	.	.	.	.	.	.
4F	.	.	.	4f	.	.	.	.	.	4F	.	2d	O-	.	.	.	.	.	.	.	.	.	.	4F\	4F	.	.	.	.	.	.
4G	3	.	.	4g	.	4b	.	.	.	4G	.	.	.	4b	.	.	.	.	.	.	.	.	.	4G\	4G	.	.	.	.	.	.
!	!	!	!	!	!	!	!	!	!	!	!	!LO:LB:g=original	!	!	!	!	!	!	!	!	!	!	!	!	!	!	!	!	!	!	!
=27	=27	=27	=27	=27	=27	=27	=27	=27	=27	=27	=27	=27	=27	=27	=27	=27	=27	=27	=27	=27	=27	=27	=27	=27	=27	=27	=27	=27	=27	=27	=27
4E	6	.	.	4e	.	2cc	.	2cc)	.	4E	.	2e	-san-	2cc	-na	(>2cc	.	1r	1r	1r	1ryy	1r	1r	4E\	4E	.	1r	.	1r	1ryy	2ccc
4C	.	.	.	4c	.	.	.	.	.	4C	.	.	.	.	.	.	.	.	.	.	.	.	.	4C\	4C	.	.	.	.	.	.
[2G	.	.	.	(2.g	.	2b	.	2r	.	(2.G	.	2d	.	2r	.	2b	.	.	.	.	.	.	.	(>2G\	(<2Gyy	.	.	.	.	.	2bb
=28	=28	=28	=28	=28	=28	=28	=28	=28	=28	=28	=28	=28	=28	=28	=28	=28	=28	=28	=28	=28	=28	=28	=28	=28	=28	=28	=28	=28	=28	=28	=28
4G]	4 2	.	.	.	.	1a	.	1r	.	.	.	1c	.	1r	.	1a)	.	1r	1r	1r	1ryy	1r	1r	4G\	4G	.	1r	.	1r	1ryy	1aa
8F#XL	.	.	.	8f#XL	.	.	.	.	.	8F#XL)	.	.	.	.	.	.	.	.	.	.	.	.	.	8F#XL\	8F#L	.	.	.	.	.	.
8EJ	.	.	.	8eJ	.	.	.	.	.	8EJ	.	.	.	.	.	.	.	.	.	.	.	.	.	8EJ\)	8EJ)	.	.	.	.	.	.
2F#	.	.	.	2f#)	.	.	.	.	.	2F#	.	.	.	.	.	.	.	.	.	.	.	.	.	2F#\	2F#	.	.	.	.	.	.
!	!	!	!	!	!	!	!	!	!	!	!	!	!	!	!	!	!	!	!	!	!	!	!	!LO:LB:g=original	!LO:LB:g=original	!	!	!	!	!LO:LB:g=original	!LO:LB:g=original
=29	=29	=29	=29	=29	=29	=29	=29	=29	=29	=29	=29	=29	=29	=29	=29	=29	=29	=29	=29	=29	=29	=29	=29	=29	=29	=29	=29	=29	=29	=29	=29
2G	.	.	.	2g	.	(<2g	.	2r	.	2G	-na	2B	-na	2r	.	2g	-na	1r	1r	1r	1ryy	1r	1r	2G\	2G	.	2r	.	1r	2reyy	2gg
2BB	6	.	.	2B	.	2a	.	4r	.	2BB	O	4r	.	2g	O	2r	.	.	.	.	.	.	.	2BB	2BB/	.	4r	.	.	4raa	2gg
.	.	.	.	.	.	.	.	4gg	.	.	.	4G	O	.	.	.	.	.	.	.	.	.	.	.	.	.	4g	.	.	4gg	.
!LO:LB:g=original	!	!	!	!	!	!	!	!	!	!	!	!	!	!	!	!	!	!	!	!	!	!	!	!	!	!	!	!	!	!	!
=30	=30	=30	=30	=30	=30	=30	=30	=30	=30	=30	=30	=30	=30	=30	=30	=30	=30	=30	=30	=30	=30	=30	=30	=30	=30	=30	=30	=30	=30	=30	=30
!	!	!	!	!	!	!	!	!	!	!	!	!	!	!	!	!	!	!	!	!	!	!	!	!	!	!	!	!	!	!LO:TX:a:t=1mo	!
2C	.	.	.	2c	.	2.g)	.	4aa	.	2C	san-	4A	san-	2g	O	1r	.	1r	1r	1r	1ryy	1r	1r	2C	2C/	.	4a\	.	1r	4aa	2.gg
.	.	.	.	.	.	.	.	4bb	.	.	.	4B	.	.	.	.	.	.	.	.	.	.	.	.	.	.	4b	.	.	4bb	.
2AA	#6	.	.	2A	.	.	.	4ccc	.	2AA	.	4c	.	2f#X	-san-	.	.	.	.	.	.	.	.	2AA	2AA/	.	4cc	.	.	4ccc	.
.	.	.	.	.	.	4f#X	.	4ddd	.	.	.	4d	.	.	.	.	.	.	.	.	.	.	.	.	.	.	4dd	.	.	4ddd	4ff#X
!	!	!	!	!LO:LB:g=original	!	!LO:LB:g=original	!	!	!	!	!	!	!	!LO:LB:g=original	!	!	!	!	!	!	!	!	!	!	!	!	!	!	!	!	!
=31	=31	=31	=31	=31	=31	=31	=31	=31	=31	=31	=31	=31	=31	=31	=31	=31	=31	=31	=31	=31	=31	=31	=31	=31	=31	=31	=31	=31	=31	=31	=31
(<1GG	6 4	.	.	[1G	.	2g	.	4bb	.	1GG	.	4B	.	2g	.	2r	.	1r	1r	1r	1ryy	1r	1r	1GG	1GGyy	.	4b	.	1r	4bb	2gg
.	.	.	.	.	.	.	.	4gg	.	.	.	4G	.	.	.	.	.	.	.	.	.	.	.	.	.	.	4g	.	.	4gg	.
.	.	.	.	.	.	2e	.	(2.ccc	.	.	.	(2.c	.	2e	.	2cc	O	.	.	.	.	.	.	.	.	.	2.cc	.	.	2.ccc	2ee
!	!	!	!	!	!	!	!	!	!	!LO:LB:g=original	!	!	!	!	!	!	!	!	!	!	!	!	!	!	!	!	!	!	!	!	!
=32	=32	=32	=32	=32	=32	=32	=32	=32	=32	=32	=32	=32	=32	=32	=32	=32	=32	=32	=32	=32	=32	=32	=32	=32	=32	=32	=32	=32	=32	=32	=32
1G)	4	.	.	1G]	.	(<1d	.	.	.	1G	.	.	.	1d	.	2.dd	san-	1r	1r	1r	1ryy	1r	1r	1G	1Gyy	.	.	.	1r	.	1dd
.	.	.	.	.	.	.	.	8bbL)	.	.	.	8BL)	.	.	.	.	.	.	.	.	.	.	.	.	.	.	8bL	.	.	8bbL	.
.	.	.	.	.	.	.	.	8aaJ	.	.	.	8AJ	.	.	.	.	.	.	.	.	.	.	.	.	.	.	8aJ	.	.	8aaJ	.
.	7 3	.	.	.	.	.	.	2bb	.	.	.	2B	.	.	.	.	.	.	.	.	.	.	.	.	.	.	2b/	.	.	2bb	.
.	.	.	.	.	.	.	.	.	.	.	.	.	.	.	.	8eeL	.	.	.	.	.	.	.	.	.	.	.	.	.	.	.
.	.	.	.	.	.	.	.	.	.	.	.	.	.	.	.	8ffJ	.	.	.	.	.	.	.	.	.	.	.	.	.	.	.
=33	=33	=33	=33	=33	=33	=33	=33	=33	=33	=33	=33	=33	=33	=33	=33	=33	=33	=33	=33	=33	=33	=33	=33	=33	=33	=33	=33	=33	=33	=33	=33
!	!	!	!	!	!	!	!	!	!	!	!	!	!	!	!	!	!	!	!	!	!	!	!	!	!	!	!	!	!	!LO:N:vis=2	!
2C	.	.	.	2c	.	2e)	.	[1ccc	.	2C	-na	2c	-na	2e	-na	2ee	-na	1r	1r	1r	1ryy	1r	1r	2C	2C/	.	1cc	.	2r	1ccc\	2ee
!	!	!	!	!	!	!	!	!	!	!	!	!	!	!	!	!	!	!	!	!	!	!	!	!LO:TX:a:t=problem: nieczytelny tekst (prawdopodobnie chodzi o primo)	!	!	!	!	!	!	!
*^	*	*	*	*	*	*	*	*	*	*	*	*	*	*	*	*	*	*	*	*	*	*	*	*	*	*	*	*	*	*	*
2e	2rEE	.	.	.	2e	.	4r	.	.	.	2r	.	2e	o	2g	O	4r	.	.	.	.	.	.	.	2e	2r	.	.	.	4r	.	4r
.	.	.	.	.	.	.	4cc	.	.	.	.	.	.	.	.	.	4cc	O	.	.	.	.	.	.	.	.	.	.	.	4cc	.	4cc
=34	=34	=34	=34	=34	=34	=34	=34	=34	=34	=34	=34	=34	=34	=34	=34	=34	=34	=34	=34	=34	=34	=34	=34	=34	=34	=34	=34	=34	=34	=34	=34	=34
(>2f	1r	.	.	.	2f	.	4dd	.	2.ccc]	.	1r	.	(>2f	san-	2a	san-	4dd	san-	1r	1r	1r	1ryy	1r	1r	2f	1r	.	2cc	.	4dd	2.ccc	4dd
.	.	.	.	.	.	.	4ee	.	.	.	.	.	.	.	.	.	4ee	.	.	.	.	.	.	.	.	.	.	.	.	4ee	.	4ee
2d	.	.	.	.	2d	.	4ff	.	.	.	.	.	2d)	.	2f	.	4ff	.	.	.	.	.	.	.	2d	.	.	2b	.	4ff	.	4ff
.	.	.	.	.	.	.	4gg	.	4bb	.	.	.	.	.	.	.	4gg	.	.	.	.	.	.	.	.	.	.	.	.	4gg	4bb	4gg
!	!	!	!	!	!	!	!	!LO:LB:g=original	!	!	!LO:LB:g=original	!	!	!	!	!	!	!	!	!	!	!	!	!	!	!	!	!	!	!	!	!
=35	=35	=35	=35	=35	=35	=35	=35	=35	=35	=35	=35	=35	=35	=35	=35	=35	=35	=35	=35	=35	=35	=35	=35	=35	=35	=35	=35	=35	=35	=35	=35	=35
2c)	1r	.	.	.	2c	.	4ee	.	2ccc	.	1r	.	2c	.	1g	.	4ee	.	1r	1r	1r	1ryy	1r	1r	2c	1r	.	2cc	.	4ee	2ccc	4ee
.	.	.	.	.	.	.	4cc	.	.	.	.	.	.	.	.	.	4cc	.	.	.	.	.	.	.	.	.	.	.	.	4cc	.	4cc
2B	.	.	.	.	2B	.	2.gg	.	2ddd	.	.	.	2B	.	.	.	(2.gg	.	.	.	.	.	.	.	2B	.	.	2dd	.	2.gg	2ddd	2.gg
=36	=36	=36	=36	=36	=36	=36	=36	=36	=36	=36	=36	=36	=36	=36	=36	=36	=36	=36	=36	=36	=36	=36	=36	=36	=36	=36	=36	=36	=36	=36	=36	=36
2A	2rEE	.	.	.	2A	.	.	.	1ccc	.	2r	.	1A	.	(>1cc	.	.	.	1r	2r	2r	2ryy	2r	2r	1A	2D	.	1cc	.	.	1ccc	.
.	.	.	.	.	.	.	8ff#XL	.	.	.	.	.	.	.	.	.	8ff#XL)	.	.	.	.	.	.	.	.	.	.	.	.	8ff#XL	.	8ff#XL
.	.	.	.	.	.	.	8eeJ	.	.	.	.	.	.	.	.	.	8eeJ	.	.	.	.	.	.	.	.	.	.	.	.	8eeJ	.	8eeJ
2rcyy	2D	7 #	.	.	2d	.	2ff#	.	.	.	2D/	O	.	.	.	.	2ff#	.	.	2D	2dd\	2dd	2dd	2dd	.	2r	.	.	.	2ff#	.	2ff#
!	!	!	!	!	!	!LO:LB:g=original	!	!	!	!	!	!	!	!	!	!LO:LB:g=original	!	!	!	!	!	!	!	!	!	!	!	!	!	!	!	!
*v	*v	*	*	*	*	*	*	*	*	*	*	*	*	*	*	*	*	*	*	*	*	*	*	*	*	*	*	*	*	*	*	*
=37	=37	=37	=37	=37	=37	=37	=37	=37	=37	=37	=37	=37	=37	=37	=37	=37	=37	=37	=37	=37	=37	=37	=37	=37	=37	=37	=37	=37	=37	=37	=37
!	!	!	!	!	!	!	!	!	!	!LO:TX:a:t=problem: brak "san" w słowie "sanna"	!	!	!	!	!	!	!	!	!	!	!	!	!	!	!	!	!	!	!	!	!
4GG	.	.	.	4G	.	4gg	.	4dd 4bb	.	4GG	.	1G	.	1b)	.	[1gg	.	8GGL	4GG	1dd	1g	1g	1dd	4GG	4GG/	.	1b	.	1gg	1bb	1gg
.	.	.	.	.	.	.	.	.	.	.	.	.	.	.	.	.	.	8GG	.	.	.	.	.	.	.	.	.	.	.	.	.
4AA	.	.	.	4A	.	2dd 2gg	.	2dd 2bb	.	4AA	.	.	.	.	.	.	.	8GG	4AA	.	.	.	.	4AA	4AA/	.	.	.	.	.	.
.	.	.	.	.	.	.	.	.	.	.	.	.	.	.	.	.	.	8GG	.	.	.	.	.	.	.	.	.	.	.	.	.
4BB	.	.	.	4B	.	.	.	.	.	4BB	.	.	.	.	.	.	.	8GG	4BB	.	.	.	.	4BB	4BB/	.	.	.	.	.	.
.	.	.	.	.	.	.	.	.	.	.	.	.	.	.	.	.	.	8GG	.	.	.	.	.	.	.	.	.	.	.	.	.
4C	.	.	.	4c	.	4dd 4gg	.	4dd 4bb	.	4C	.	.	.	.	.	.	.	8GG	4C	.	.	.	.	4C	4C/	.	.	.	.	.	.
.	.	.	.	.	.	.	.	.	.	.	.	.	.	.	.	.	.	8GGJ	.	.	.	.	.	.	.	.	.	.	.	.	.
!LO:LB:g=original	!	!	!	!LO:LB:g=original	!	!	!	!	!	!	!	!	!	!	!	!	!	!	!	!	!	!	!	!	!	!	!	!	!	!	!
=38	=38	=38	=38	=38	=38	=38	=38	=38	=38	=38	=38	=38	=38	=38	=38	=38	=38	=38	=38	=38	=38	=38	=38	=38	=38	=38	=38	=38	=38	=38	=38
4D	6 4	.	.	4d	.	4dd 4gg	.	4dd 4bb	.	4D	na	2.G	-na	2.b	-na	2.gg]	-na	8GGL	4D	2.dd\	2.g	2.g	2.dd	4D\	4D	.	2.b	.	2.gg	2.bb\	2.gg
.	.	.	.	.	.	.	.	.	.	.	.	.	.	.	.	.	.	8GG	.	.	.	.	.	.	.	.	.	.	.	.	.
4E	.	.	.	4e	.	2dd 2gg	.	2dd 2bb	.	4E	.	.	.	.	.	.	.	8GG	4E	.	.	.	.	4E\	4E	.	.	.	.	.	.
.	.	.	.	.	.	.	.	.	.	.	.	.	.	.	.	.	.	8GG	.	.	.	.	.	.	.	.	.	.	.	.	.
(>2Fn	.	.	.	2f	.	.	.	.	.	2F	O	.	.	.	.	.	.	8GG	2Fn	.	.	.	.	2Fn\	2Fn	.	.	.	.	.	.
.	.	.	.	.	.	.	.	.	.	.	.	.	.	.	.	.	.	8GG	.	.	.	.	.	.	.	.	.	.	.	.	.
.	.	.	.	.	.	4dd 4gg	.	4dd 4bb	.	.	.	4d	O	4g	O	4b	O	8GG	.	4dd\	4g	4g	4dd	.	.	.	4b	.	4gg	4bb\	4gg
.	.	.	.	.	.	.	.	.	.	.	.	.	.	.	.	.	.	8GGJ	.	.	.	.	.	.	.	.	.	.	.	.	.
=39	=39	=39	=39	=39	=39	=39	=39	=39	=39	=39	=39	=39	=39	=39	=39	=39	=39	=39	=39	=39	=39	=39	=39	=39	=39	=39	=39	=39	=39	=39	=39
4E)	6	.	.	4e	.	8ccL 8gg	.	8eeL 8ccc	.	4E	san-	4c	san-	4g	san-	4cc	san-	4C	4E	4cc\	4cc	4cc	4cc	4E\	4E	.	4cc	.	2.gg	4ccc\	4gg
.	.	.	.	.	.	8cc 8gg	.	8ccc	.	.	.	.	.	.	.	.	.	.	.	.	.	.	.	.	.	.	.	.	.	.	.
4BB	6	.	.	4B	.	8dd 8gg	.	8ddd	.	4BB	-na	4G	-na	4g	-na	4dd	-na	4r	4BB	4dd\	4g	4g	4dd	4BB	4BB/	.	4dd	.	.	4ddd\	4ff
.	.	.	.	.	.	8ddJ 8gg	.	8dddJ	.	.	.	.	.	.	.	.	.	.	.	.	.	.	.	.	.	.	.	.	.	.	.
4C	.	.	.	4c/	.	8eeL 8gg	.	8eeeL	.	4C\	in	4G	in	4g	in	4ee	in	2r	4C	4cc\	4cc	4e	4cc	4C	4C/	.	4ee	.	.	4eee\	4ee
.	.	.	.	.	.	8ee 8gg	.	8eee	.	.	.	.	.	.	.	.	.	.	.	.	.	.	.	.	.	.	.	.	.	.	.
4AA	6	.	.	4A	.	8cc 8ff	.	8fff	.	4AA	ex-	4A/	ex-	4cc	ex-	4ff	ex-	.	4AA	4cc\	4cc	4cc	4cc	4AA	4AA/	.	4cc	.	4ff	4fff\	4cc
.	.	.	.	.	.	8ccJ 8ff	.	8fffJ	.	.	.	.	.	.	.	.	.	.	.	.	.	.	.	.	.	.	.	.	.	.	.
!	!	!	!	!	!	!	!	!	!	!	!	!	!	!LO:LB:g=original	!	!	!	!LO:LB:g=original	!LO:LB:g=original	!	!	!	!	!	!	!	!LO:LB:g=original	!	!	!	!
=40	=40	=40	=40	=40	=40	=40	=40	=40	=40	=40	=40	=40	=40	=40	=40	=40	=40	=40	=40	=40	=40	=40	=40	=40	=40	=40	=40	=40	=40	=40	=40
*	*	*	*	*tremolo	*	*tremolo	*	*tremolo	*	*	*	*	*	*	*	*	*	*	*	*	*	*	*	*	*	*	*	*	*	*	*
2GG	6 4	.	.	8GL	.	8ccL 8ee	.	8eeeL	.	2GG	-coel-	2c	-coel-	2g	-cel-	2ee	-cel-	2C	2GG	2ee\	2cc	2cc	2ee	2GG	2GG/	.	2cc	.	2ee	2eee\	2cc
.	.	.	.	8G	.	8cc 8ee	.	8eee	.	.	.	.	.	.	.	.	.	.	.	.	.	.	.	.	.	.	.	.	.	.	.
.	.	.	.	8G	.	8cc 8ee	.	8eee	.	.	.	.	.	.	.	.	.	.	.	.	.	.	.	.	.	.	.	.	.	.	.
.	.	.	.	8GJ	.	8cc 8ee	.	8eeeJ	.	.	.	.	.	.	.	.	.	.	.	.	.	.	.	.	.	.	.	.	.	.	.
2G	3	.	.	8GL	.	8b 8gg	.	8dddL	.	2G	-sis	2B	-sis	2g	-sis	2dd	-sis	2GG	2G	2dd\	2g	2g	2dd	2G\	2G	.	2b	.	2dd	2ddd\	2b
.	.	.	.	8G	.	8b 8gg	.	8ddd	.	.	.	.	.	.	.	.	.	.	.	.	.	.	.	.	.	.	.	.	.	.	.
.	.	.	.	8G	.	8b 8gg	.	8ddd	.	.	.	.	.	.	.	.	.	.	.	.	.	.	.	.	.	.	.	.	.	.	.
.	.	.	.	8GJ	.	8bJ 8gg	.	8dddJ	.	.	.	.	.	.	.	.	.	.	.	.	.	.	.	.	.	.	.	.	.	.	.
*	*	*	*	*	*	*Xtremolo	*	*Xtremolo	*	*	*	*	*	*	*	*	*	*	*	*	*	*	*	*	*	*	*	*	*	*	*
!	!	!	!	!	!	!	!	!	!	!LO:LB:g=original	!	!	!	!	!	!	!	!	!	!	!	!	!LO:LB:g=original	!	!	!	!	!	!	!	!
=41	=41	=41	=41	=41	=41	=41	=41	=41	=41	=41	=41	=41	=41	=41	=41	=41	=41	=41	=41	=41	=41	=41	=41	=41	=41	=41	=41	=41	=41	=41	=41
4E	6	.	.	4e	.	8ccL 8gg	.	8cccL	.	4E	in	4c	in	4g	in	4cc	in	4C	4E	4cc\	4cc	4cc	4cc	4E\	4E	.	4cc	.	2.gg	4ccc\	4gg
.	.	.	.	.	.	8cc 8gg	.	8ccc	.	.	.	.	.	.	.	.	.	.	.	.	.	.	.	.	.	.	.	.	.	.	.
4BB	6	.	.	4B	.	8dd 8gg	.	8ddd	.	4BB	ex-	4G\	ex-	4g	ex-	4dd	ex-	4r	4BB	4dd\	4g	4g	4dd	4BB	4BB/	.	4dd	.	.	4ddd\	4ff
.	.	.	.	.	.	8ddJ 8gg	.	8dddJ	.	.	.	.	.	.	.	.	.	.	.	.	.	.	.	.	.	.	.	.	.	.	.
4C	.	.	.	4c/	.	8eeL 8gg	.	8eeeL	.	4C\	-cel-	4G\	-coel-	4g	-cel-	4ee	-cel-	2r	4C	4cc\	4cc	4e	4cc	4C	4C/	.	4ee	.	.	4eee\	4ee
.	.	.	.	.	.	8ee 8gg	.	8eee	.	.	.	.	.	.	.	.	.	.	.	.	.	.	.	.	.	.	.	.	.	.	.
4AA	6	.	.	4A	.	8cc 8ff	.	8fff	.	4AA	-sis	4A	-sis	4cc	-sis	4ff	-sis	.	4AA	4cc\	4cc	4cc	4cc	4AA	4AA/	.	4cc	.	4ff	4fff\	4cc
.	.	.	.	.	.	8ccJ 8ff	.	8fffJ	.	.	.	.	.	.	.	.	.	.	.	.	.	.	.	.	.	.	.	.	.	.	.
!	!	!	!	!	!	!	!	!LO:LB:g=original	!	!	!	!LO:LB:g=original	!	!	!	!	!	!	!	!	!	!LO:LB:g=original	!	!	!	!	!	!	!	!LO:LB:g=original	!LO:LB:g=original
=42	=42	=42	=42	=42	=42	=42	=42	=42	=42	=42	=42	=42	=42	=42	=42	=42	=42	=42	=42	=42	=42	=42	=42	=42	=42	=42	=42	=42	=42	=42	=42
*	*	*	*	*	*	*tremolo	*	*tremolo	*	*	*	*	*	*	*	*	*	*	*	*	*	*	*	*	*	*	*	*	*	*	*
2GG	6	.	.	8GL	.	8ccL 8ee	.	8eeeL	.	2GG	De-	(>2c	De-	2g	De-	(>2ee	De-	2C	2GG	2ee\	2cc	2cc	2ee	2GG	2GG/	.	2cc	.	2ee	2eee\	2cc
.	.	.	.	8G	.	8cc 8ee	.	8eee	.	.	.	.	.	.	.	.	.	.	.	.	.	.	.	.	.	.	.	.	.	.	.
.	.	.	.	8G	.	8cc 8ee	.	8eee	.	.	.	.	.	.	.	.	.	.	.	.	.	.	.	.	.	.	.	.	.	.	.
.	.	.	.	8GJ	.	8ccJ 8ee	.	8eeeJ	.	.	.	.	.	.	.	.	.	.	.	.	.	.	.	.	.	.	.	.	.	.	.
2G	3	.	.	8GL	.	8bL 8gg	.	8dddL	.	2G	-o	2B)	-o	2g	-o	2dd)	-o	2GG	2G	2dd\	2g	2g	2dd	2G\	2G	.	2b	.	2dd	2ddd\	2b
.	.	.	.	8G	.	8b 8gg	.	8ddd	.	.	.	.	.	.	.	.	.	.	.	.	.	.	.	.	.	.	.	.	.	.	.
.	.	.	.	8G	.	8b 8gg	.	8ddd	.	.	.	.	.	.	.	.	.	.	.	.	.	.	.	.	.	.	.	.	.	.	.
.	.	.	.	8GJ	.	8bJ 8gg	.	8dddJ	.	.	.	.	.	.	.	.	.	.	.	.	.	.	.	.	.	.	.	.	.	.	.
*	*	*	*	*	*	*Xtremolo	*	*Xtremolo	*	*	*	*	*	*	*	*	*	*	*	*	*	*	*	*	*	*	*	*	*	*	*
!	!	!	!	!	!	!LO:LB:g=original	!	!	!	!	!	!	!	!	!	!	!	!	!	!	!	!	!	!	!	!	!	!	!	!	!
=43	=43	=43	=43	=43	=43	=43	=43	=43	=43	=43	=43	=43	=43	=43	=43	=43	=43	=43	=43	=43	=43	=43	=43	=43	=43	=43	=43	=43	=43	=43	=43
4C	.	.	.	4c	.	4cc 4ee	.	4ccc	.	4C	in	(>4c	in	4e	in	4cc	in	4C	4C	4cc	4e/	4e	4cc	4C	4C/	.	4cc	.	4cc	4ccc\	4cc
4GG	.	.	.	4G	.	8gL	.	8ggL	.	4GG	ex-	4G)	ex-	4g	ex-	4g	ex-	4r	4GG	4g	4g/	4g	4g	4GG	4GG/	.	4g	.	4g	4gg	4gg
.	.	.	.	.	.	8gJ	.	8ggJ	.	.	.	.	.	.	.	.	.	.	.	.	.	.	.	.	.	.	.	.	.	.	.
4E	.	.	.	4e	.	8eeL	.	8eeeL	.	4E	-cel-	4e	-coel-	4ee	-cel-	4ee	-cel-	2r	4E	4ee\	4ee	4ee	4ee	4E\	4E	.	4ee	.	4ee	4eee\	4eee
.	.	.	.	.	.	8ee	.	8eee	.	.	.	.	.	.	.	.	.	.	.	.	.	.	.	.	.	.	.	.	.	.	.
4C	.	.	.	4c	.	8cc	.	8ccc	.	4C	-sis	4c	-sis	4cc	-sis	4cc	-sis	.	4C	4cc\	4cc	4cc	4cc	4C	4C/	.	4cc	.	4cc	4ccc\	4ccc
.	.	.	.	.	.	8ccJ	.	8cccJ	.	.	.	.	.	.	.	.	.	.	.	.	.	.	.	.	.	.	.	.	.	.	.
!LO:LB:g=original	!	!	!	!	!	!	!	!	!	!	!	!	!	!	!	!	!	!	!	!	!	!	!	!	!	!	!	!	!LO:LB:g=original	!	!
=44	=44	=44	=44	=44	=44	=44	=44	=44	=44	=44	=44	=44	=44	=44	=44	=44	=44	=44	=44	=44	=44	=44	=44	=44	=44	=44	=44	=44	=44	=44	=44
*	*	*	*	*	*	*tremolo	*	*tremolo	*	*	*	*	*	*	*	*	*	*	*	*	*	*	*	*	*	*	*	*	*	*	*
4G	6 4	.	.	8GL 8e	.	8ccL 8ee	.	8eeeL	.	1G	De-	1e	De-	1cc	De-	[1gg	De-	8CL	1G	1ee	1cc	1cc	1ee	4G\	4G	.	1cc	.	1ee	1eee	1ccc
.	.	.	.	8G 8e	.	8cc 8ee	.	8eee	.	.	.	.	.	.	.	.	.	8C	.	.	.	.	.	.	.	.	.	.	.	.	.
4G	.	.	.	8G 8e	.	8cc 8ee	.	8eee	.	.	.	.	.	.	.	.	.	8C	.	.	.	.	.	4G\	4G	.	.	.	.	.	.
.	.	.	.	8GJ 8e	.	8ccJ 8ee	.	8eeeJ	.	.	.	.	.	.	.	.	.	8C	.	.	.	.	.	.	.	.	.	.	.	.	.
4G	.	.	.	8GL 8e	.	8cccL	.	8eeeL	.	.	.	.	.	.	.	.	.	8C	.	.	.	.	.	4G\	4G	.	.	.	.	.	.
.	.	.	.	8G 8e	.	8ccc	.	8eee	.	.	.	.	.	.	.	.	.	8C	.	.	.	.	.	.	.	.	.	.	.	.	.
4G	.	.	.	8G 8e	.	8ccc	.	8eee	.	.	.	.	.	.	.	.	.	8C	.	.	.	.	.	4G\	4G	.	.	.	.	.	.
.	.	.	.	8GJ 8e	.	8cccJ	.	8eeeJ	.	.	.	.	.	.	.	.	.	8CJ	.	.	.	.	.	.	.	.	.	.	.	.	.
!	!	!	!	!	!	!	!	!	!	!	!	!	!	!	!	!	!	!	!	!	!	!	!	!LO:LB:g=original	!LO:LB:g=original	!	!	!	!	!	!
=45	=45	=45	=45	=45	=45	=45	=45	=45	=45	=45	=45	=45	=45	=45	=45	=45	=45	=45	=45	=45	=45	=45	=45	=45	=45	=45	=45	=45	=45	=45	=45
4GG	4	.	.	8GL 8d	.	8cccL	.	8dddL	.	1GG	.	1d	.	2cc	.	(>1gg]	.	8GGL	1GG	1dd	2cc	2cc	1dd	4GG	4GG/	.	2cc	.	1dd	1ddd	2ccc
.	.	.	.	8G 8d	.	8ccc	.	8ddd	.	.	.	.	.	.	.	.	.	8GG	.	.	.	.	.	.	.	.	.	.	.	.	.
4GG	.	.	.	8G 8d	.	8ccc	.	8ddd	.	.	.	.	.	.	.	.	.	8GG	.	.	.	.	.	4GG	4GG/	.	.	.	.	.	.
.	.	.	.	8GJ 8d	.	8cccJ	.	8dddJ	.	.	.	.	.	.	.	.	.	8GG	.	.	.	.	.	.	.	.	.	.	.	.	.
4GG	3	.	.	8GL 8d	.	8bbL	.	8dddL	.	.	.	.	.	2b	.	.	.	8GG	.	.	2g	2g	.	4GG	4GG/	.	2b	.	.	.	2bb
.	.	.	.	8G 8d	.	8bb	.	8ddd	.	.	.	.	.	.	.	.	.	8GG	.	.	.	.	.	.	.	.	.	.	.	.	.
4GG	.	.	.	8G 8d	.	8bb	.	8ddd	.	.	.	.	.	.	.	.	.	8GG	.	.	.	.	.	4GG	4GG/	.	.	.	.	.	.
.	.	.	.	8GJ 8d	.	8bbJ	.	8dddJ	.	.	.	.	.	.	.	.	.	8GGJ	.	.	.	.	.	.	.	.	.	.	.	.	.
*	*	*	*	*	*	*Xtremolo	*	*Xtremolo	*	*	*	*	*	*	*	*	*	*	*	*	*	*	*	*	*	*	*	*	*	*	*
=46	=46	=46	=46	=46	=46	=46	=46	=46	=46	=46	=46	=46	=46	=46	=46	=46	=46	=46	=46	=46	=46	=46	=46	=46	=46	=46	=46	=46	=46	=46	=46
4C	.	.	.	4C 4G 4c 4e	.	2ee 2ccc	.	2ee 2ccc	.	2C	-o	2c	-o	2cc	-o	2ee)	-o	2C	2C	2cc	2e/	2e	2cc	4C	4C/	.	2cc	.	2cc	2ccc	2ccc
4D	.	.	.	4d	.	.	.	.	.	.	.	.	.	.	.	.	.	.	.	.	.	.	.	4D\	4D	.	.	.	.	.	.
4E	.	.	.	4e	.	2r	.	2r	.	2r	.	2r	.	2r	.	2r	.	2r	2r	2r	2ryy	2r	2r	4E\	4E	.	2r	.	2r	2r	2ryy
4F	.	.	.	4f	.	.	.	.	.	.	.	.	.	.	.	.	.	.	.	.	.	.	.	4F\	4F	.	.	.	.	.	.
!	!	!	!	!LO:LB:g=original	!	!	!	!	!	!	!	!	!	!	!	!LO:LB:g=original	!	!LO:LB:g=original	!	!	!	!	!	!	!	!	!	!	!	!	!
=47	=47	=47	=47	=47	=47	=47	=47	=47	=47	=47	=47	=47	=47	=47	=47	=47	=47	=47	=47	=47	=47	=47	=47	=47	=47	=47	=47	=47	=47	=47	=47
4G	.	.	.	4g	.	2r	.	2r	.	1r	.	1r	.	1r	.	1r	.	1r	1r	1r	1ryy	1r	1r	4G\	4G	.	2r	.	1r	1r	1ryy
4E	.	.	.	4e	.	.	.	.	.	.	.	.	.	.	.	.	.	.	.	.	.	.	.	4E\	4E	.	.	.	.	.	.
4A	.#3	.	.	4a	.	(>2ee	.	(>2ccc#X	pp	.	.	.	.	.	.	.	.	.	.	.	.	.	.	4A\	4A	.	[2a	pp	.	.	.
4G	.	.	.	4g	.	.	.	.	.	.	.	.	.	.	.	.	.	.	.	.	.	.	.	4G\	4G	.	.	.	.	.	.
=48	=48	=48	=48	=48	=48	=48	=48	=48	=48	=48	=48	=48	=48	=48	=48	=48	=48	=48	=48	=48	=48	=48	=48	=48	=48	=48	=48	=48	=48	=48	=48
4F	6	.	.	4f	.	1dd)(	.	2ddd	.	1r	.	1r	.	1r	.	1r	.	1r	1r	1r	1ryy	1r	1r	4F\	4F	.	2a]	.	1r	1r	1ryy
4D	.	.	.	4d	.	.	.	.	.	.	.	.	.	.	.	.	.	.	.	.	.	.	.	4D\	4D	.	.	.	.	.	.
4G	3	.	.	4g	.	.	.	2bb	.	.	.	.	.	.	.	.	.	.	.	.	.	.	.	4G\	4G	.	2g	.	.	.	.
4F	.	.	.	4f	.	.	.	.	.	.	.	.	.	.	.	.	.	.	.	.	.	.	.	4F\	4F	.	.	.	.	.	.
!	!	!	!	!	!	!	!	!LO:LB:g=original	!	!	!	!	!	!	!	!	!	!	!	!	!	!	!	!	!	!	!	!	!	!	!
=49	=49	=49	=49	=49	=49	=49	=49	=49	=49	=49	=49	=49	=49	=49	=49	=49	=49	=49	=49	=49	=49	=49	=49	=49	=49	=49	=49	=49	=49	=49	=49
4E	6	.	.	4e	.	4cc)	.	1cccn	.	1r	.	1r	.	1r	.	1r	.	1r	1r	1r	1ryy	1r	1r	4E\	4E	.	2g	.	2r	1r	1ryy
4C	.	.	.	4c	.	4ee	.	.	.	.	.	.	.	.	.	.	.	.	.	.	.	.	.	4C	4C/	.	.	.	.	.	.
4F	3	.	.	4f	.	4aa	.	.	.	.	.	.	.	.	.	.	.	.	.	.	.	.	.	4F\	4F	.	4a	.	[2cc	.	.
4E	.	.	.	4e	.	(>4gg	.	.	.	.	.	.	.	.	.	.	.	.	.	.	.	.	.	4E\	4E	.	4g	.	.	.	.
!LO:LB:g=original	!	!	!	!	!	!LO:LB:g=original	!	!	!	!	!	!	!	!	!	!	!	!	!	!	!	!	!	!	!	!	!	!	!	!	!
=50	=50	=50	=50	=50	=50	=50	=50	=50	=50	=50	=50	=50	=50	=50	=50	=50	=50	=50	=50	=50	=50	=50	=50	=50	=50	=50	=50	=50	=50	=50	=50
1D	7	.	.	1d	.	1ff	.	2ccc	.	1r	.	1r	.	1r	.	1r	.	1r	1r	1r	1ryy	1r	1r	1D	1Dyy	.	1f	.	2cc]	1r	1ryy
.	6	.	.	.	.	.	.	2bb	.	.	.	.	.	.	.	.	.	.	.	.	.	.	.	.	.	.	.	.	2b	.	.
=51	=51	=51	=51	=51	=51	=51	=51	=51	=51	=51	=51	=51	=51	=51	=51	=51	=51	=51	=51	=51	=51	=51	=51	=51	=51	=51	=51	=51	=51	=51	=51
4C	.	.	.	4c/	.	2ee)	.	2ccc)	.	1r	.	1r	.	1r	.	1r	.	1r	1r	1r	1ryy	1r	1r	4C	4C/	.	2e	.	2cc	1r	1ryy
4BB	.	.	.	4B	.	.	.	.	.	.	.	.	.	.	.	.	.	.	.	.	.	.	.	4BB	4BB/	.	.	.	.	.	.
4AA	.	.	.	4A	.	2r	.	2r	.	.	.	.	.	.	.	.	.	.	.	.	.	.	.	4AA	4AA/	.	2r	.	2r	.	.
4GG	.	.	.	4G	.	.	.	.	.	.	.	.	.	.	.	.	.	.	.	.	.	.	.	4GG	4GG/	.	.	.	.	.	.
!	!	!	!	!	!	!	!	!	!	!	!	!	!	!	!	!	!	!	!	!	!	!	!	!	!	!	!	!	!	!	!
=52	=52	=52	=52	=52	=52	=52	=52	=52	=52	=52	=52	=52	=52	=52	=52	=52	=52	=52	=52	=52	=52	=52	=52	=52	=52	=52	=52	=52	=52	=52	=52
1GG	7	.	.	1G	.	1G 1f	.	(>4bb	.	2r	.	2r	.	2r	.	2r	.	8GGL	1GG	1dd	1g	1g	1dd	1GG	1GGyy	.	1f	.	4b	4bb\	1dd
.	.	.	.	.	.	.	.	.	.	.	.	.	.	.	.	.	.	8GG	.	.	.	.	.	.	.	.	.	.	.	.	.
.	.	.	.	.	.	.	.	4ccc	.	.	.	.	.	.	.	.	.	8GG	.	.	.	.	.	.	.	.	.	.	4cc	4ccc\	.
.	.	.	.	.	.	.	.	.	.	.	.	.	.	.	.	.	.	8GG	.	.	.	.	.	.	.	.	.	.	.	.	.
.	.	.	.	.	.	.	.	4ddd	.	2G	O	2B	O-	2g	O	2dd	O-	8GG	.	.	.	.	.	.	.	.	.	.	4dd	4ddd\	.
.	.	.	.	.	.	.	.	.	.	.	.	.	.	.	.	.	.	8GG	.	.	.	.	.	.	.	.	.	.	.	.	.
.	.	.	.	.	.	.	.	4eee	.	.	.	.	.	.	.	.	.	8GG	.	.	.	.	.	.	.	.	.	.	4ee	4eee\	.
.	.	.	.	.	.	.	.	.	.	.	.	.	.	.	.	.	.	8GGJ	.	.	.	.	.	.	.	.	.	.	.	.	.
=53	=53	=53	=53	=53	=53	=53	=53	=53	=53	=53	=53	=53	=53	=53	=53	=53	=53	=53	=53	=53	=53	=53	=53	=53	=53	=53	=53	=53	=53	=53	=53
4C	.	.	.	4c/	.	2G 2e	.	2ccc)	.	4C	san-	4c	-san-	4g	san-	4ee	-san-	2C	2C	2cc	2e/	2e	2cc	4C	4C/	.	2e	.	2cc	2ccc\	2ee
4BB	.	.	.	4B	.	.	.	.	.	8C	-na	8c	-na	8g	-na	8ee	-na	.	.	.	.	.	.	4BB	4BB/	.	.	.	.	.	.
.	.	.	.	.	.	.	.	.	.	8r	.	8r	.	8r	.	8r	.	.	.	.	.	.	.	.	.	.	.	.	.	.	.
4AA	.	.	.	4A	.	2r	.	2r	.	2r	.	2r	.	2r	.	2r	.	2r	2r	2r	2ryy	2r	2r	4AA	4AA/	.	2r	.	2r	2r	2ryy
4GG	.	.	.	4G	.	.	.	.	.	.	.	.	.	.	.	.	.	.	.	.	.	.	.	4GG	4GG/	.	.	.	.	.	.
=54	=54	=54	=54	=54	=54	=54	=54	=54	=54	=54	=54	=54	=54	=54	=54	=54	=54	=54	=54	=54	=54	=54	=54	=54	=54	=54	=54	=54	=54	=54	=54
1GG	7	.	.	1G	.	1G 1f	.	4bb	.	2r	.	2r	.	2r	.	2r	.	8GGL	(<1GG	1dd	1g	1g	1dd	1GG	1GGyy	.	1f	.	4b	4bb\	1dd
.	.	.	.	.	.	.	.	.	.	.	.	.	.	.	.	.	.	8GG	.	.	.	.	.	.	.	.	.	.	.	.	.
.	.	.	.	.	.	.	.	4ccc	.	.	.	.	.	.	.	.	.	8GG	.	.	.	.	.	.	.	.	.	.	4cc	4ccc\	.
.	.	.	.	.	.	.	.	.	.	.	.	.	.	.	.	.	.	8GG	.	.	.	.	.	.	.	.	.	.	.	.	.
.	.	.	.	.	.	.	.	4ddd	.	2G	O	2d	O-	2g	O	(>2b	O-	8GG	.	.	.	.	.	.	.	.	.	.	4dd	4ddd\	.
.	.	.	.	.	.	.	.	.	.	.	.	.	.	.	.	.	.	8GG	.	.	.	.	.	.	.	.	.	.	.	.	.
.	.	.	.	.	.	.	.	4eee	.	.	.	.	.	.	.	.	.	8GG	.	.	.	.	.	.	.	.	.	.	4ee	4eee\	.
.	.	.	.	.	.	.	.	.	.	.	.	.	.	.	.	.	.	8GGJ	.	.	.	.	.	.	.	.	.	.	.	.	.
!	!	!	!	!	!	!	!	!	!	!LO:LB:g=original	!	!LO:LB:g=original	!	!	!	!	!	!	!	!	!	!	!	!	!	!	!	!	!	!	!
=55	=55	=55	=55	=55	=55	=55	=55	=55	=55	=55	=55	=55	=55	=55	=55	=55	=55	=55	=55	=55	=55	=55	=55	=55	=55	=55	=55	=55	=55	=55	=55
2C	.	.	.	2c/	.	4G 4e	.	4ccc	.	1C	san-	1e	-san-	1g	san-	1cc)	-san-	8CL	1C	2cc	2e/	1cc	1ee	2C	2C/	.	1e	.	1cc	1ccc	1ee
.	.	.	.	.	.	.	.	.	.	.	.	.	.	.	.	.	.	8C	.	.	.	.	.	.	.	.	.	.	.	.	.
.	.	.	.	.	.	2G 2e	.	2ccc	.	.	.	.	.	.	.	.	.	8C	.	.	.	.	.	.	.	.	.	.	.	.	.
.	.	.	.	.	.	.	.	.	.	.	.	.	.	.	.	.	.	8C	.	.	.	.	.	.	.	.	.	.	.	.	.
2GG	.	.	.	2G	.	.	.	.	.	.	.	.	.	.	.	.	.	8C	.	2g	2g/	.	.	2GG	2GG/	.	.	.	.	.	.
.	.	.	.	.	.	.	.	.	.	.	.	.	.	.	.	.	.	8C	.	.	.	.	.	.	.	.	.	.	.	.	.
.	.	.	.	.	.	4G 4e	.	4ccc	.	.	.	.	.	.	.	.	.	8C	.	.	.	.	.	.	.	.	.	.	.	.	.
.	.	.	.	.	.	.	.	.	.	.	.	.	.	.	.	.	.	8CJ	.	.	.	.	.	.	.	.	.	.	.	.	.
!	!	!	!	!	!	!	!	!	!	!	!	!	!	!	!	!	!	!	!	!LO:LB:g=original	!LO:LB:g=original	!	!	!	!	!	!	!	!	!	!
=56	=56	=56	=56	=56	=56	=56	=56	=56	=56	=56	=56	=56	=56	=56	=56	=56	=56	=56	=56	=56	=56	=56	=56	=56	=56	=56	=56	=56	=56	=56	=56
2EE	.	.	.	2E	.	4G 4e	.	4ccc	.	2C	-na	2e	-na	2g	-na	2cc	-na	8CL	1C)	2e	2e/	1cc	1ee	2EE	2EE/	.	1e	.	1cc	1ccc	1ee
.	.	.	.	.	.	.	.	.	.	.	.	.	.	.	.	.	.	8C	.	.	.	.	.	.	.	.	.	.	.	.	.
.	.	.	.	.	.	2G 2e	.	2ccc	.	.	.	.	.	.	.	.	.	8C	.	.	.	.	.	.	.	.	.	.	.	.	.
.	.	.	.	.	.	.	.	.	.	.	.	.	.	.	.	.	.	8C	.	.	.	.	.	.	.	.	.	.	.	.	.
2GG	.	.	.	2G	.	.	.	.	.	2r	.	2r	.	2r	.	2r	.	8C	.	2g	2g/	.	.	2GG	2GG/	.	.	.	.	.	.
.	.	.	.	.	.	.	.	.	.	.	.	.	.	.	.	.	.	8C	.	.	.	.	.	.	.	.	.	.	.	.	.
.	.	.	.	.	.	4G 4e	.	4ccc	.	.	.	.	.	.	.	.	.	8C	.	.	.	.	.	.	.	.	.	.	.	.	.
.	.	.	.	.	.	.	.	.	.	.	.	.	.	.	.	.	.	8CJ	.	.	.	.	.	.	.	.	.	.	.	.	.
*	*	*	*	*Xtremolo	*	*	*	*	*	*	*	*	*	*	*	*	*	*Xtremolo	*	*	*	*	*	*	*	*	*	*	*	*	*
=57	=57	=57	=57	=57	=57	=57	=57	=57	=57	=57	=57	=57	=57	=57	=57	=57	=57	=57	=57	=57	=57	=57	=57	=57	=57	=57	=57	=57	=57	=57	=57
2.CC	.	.	.	2.C	.	2.G 2.e	.	2.ccc	.	1r	.	1r	.	1r	.	1r	.	2.C	2.C	2.c	2.c/	2.cc	2.ee	2.C	2.CC/	.	2.e	.	2.cc	2.ccc	2.ee
4r	.	.	.	4r	.	4r	.	4r	.	.	.	.	.	.	.	.	.	4r	4r	4r	4ryy	4r	4r	4r	4ryy	.	4r	.	4r	4r	4ryy
*	*	*	*	*	*	*	*	*	*	*	*	*	*	*	*	*	*	*	*	*v	*v	*	*	*v	*v	*	*	*	*	*v	*v
==	==	==	==	==	==	==	==	==	==	==	==	==	==	==	==	==	==	==	==	==	==	==	==	==	==	==	==	==
*-	*-	*-	*-	*-	*-	*-	*-	*-	*-	*-	*-	*-	*-	*-	*-	*-	*-	*-	*-	*-	*-	*-	*-	*-	*-	*-	*-	*-
!!!system-decoration: s1,s2,s3,s4,s5,s6,s7,s8,s9,s10,s11,s12,s13,s14,s15,s16,s17
!!!RDF**kern: > = above
!!!RDF**kern: < = below
!!!ENC: Andrzej Kubiczek
!!!END: 2020-01-30
!!!ENC: Anna Matuszewska
!!!END: 2020-02-29
!!!YEC: Copyright 2022 Narodowy Instytut Fryderyka Chopina (https://polishscores.org)
!!!YEM: License CC-BY-4.0 (https://creativecommons.org/licenses/by/4.0)
